(Gcode generated by test.pl for Eagle PCB Widget Tue Dec  1 12:43:42 2015)
G21 (mm mode)
G90 (abs mode)
M3 (spindle on)
TO M6 (set tool)
G0 Z1
(------ DISPENSER DROP's -------)
M5 (spindle stop)

(generate Drop Nr: 0 press: 0.01)
G0 Z1
G0 X0 y0
G0 Z0.5
G1 Z0.3333
(chilipeppr_pause drop1 G1 F100 x0.01)
G1 Z0.5

(generate Drop Nr: 1 press: 0.02)
G0 Z1
G0 X0 y2
G0 Z0.5
G1 Z0.3333
(chilipeppr_pause drop1 G1 F100 x0.02)
G1 Z0.5

(generate Drop Nr: 2 press: 0.03)
G0 Z1
G0 X0 y4
G0 Z0.5
G1 Z0.3333
(chilipeppr_pause drop1 G1 F100 x0.03)
G1 Z0.5

(generate Drop Nr: 3 press: 0.04)
G0 Z1
G0 X0 y6
G0 Z0.5
G1 Z0.3333
(chilipeppr_pause drop1 G1 F100 x0.04)
G1 Z0.5

(generate Drop Nr: 4 press: 0.05)
G0 Z1
G0 X0 y8
G0 Z0.5
G1 Z0.3333
(chilipeppr_pause drop1 G1 F100 x0.05)
G1 Z0.5

(generate Drop Nr: 5 press: 0.06)
G0 Z1
G0 X0 y10
G0 Z0.5
G1 Z0.3333
(chilipeppr_pause drop1 G1 F100 x0.06)
G1 Z0.5

(generate Drop Nr: 6 press: 0.07)
G0 Z1
G0 X0 y12
G0 Z0.5
G1 Z0.3333
(chilipeppr_pause drop1 G1 F100 x0.07)
G1 Z0.5

(generate Drop Nr: 7 press: 0.08)
G0 Z1
G0 X0 y14
G0 Z0.5
G1 Z0.3333
(chilipeppr_pause drop1 G1 F100 x0.08)
G1 Z0.5

(generate Drop Nr: 8 press: 0.09)
G0 Z1
G0 X0 y16
G0 Z0.5
G1 Z0.3333
(chilipeppr_pause drop1 G1 F100 x0.09)
G1 Z0.5

(generate Drop Nr: 9 press: 0.1)
G0 Z1
G0 X0 y18
G0 Z0.5
G1 Z0.3333
(chilipeppr_pause drop1 G1 F100 x0.1)
G1 Z0.5

(generate Drop Nr: 10 press: 0.11)
G0 Z1
G0 X0 y20
G0 Z0.5
G1 Z0.3333
(chilipeppr_pause drop1 G1 F100 x0.11)
G1 Z0.5

M5 (spindle stop)
M30 (prog stop)
