(Gcode generated by ./create_dispenser_calibrate_gcode.pl for Eagle PCB Widget Tue Dec  1 14:14:52 2015)
G21 (mm mode)
G90 (abs mode)
M3 (spindle on)
TO M6 (set tool)
G0 Z1
(------ DISPENSER DROP's -------)
M5 (spindle stop)
(generate Drop 0a press: 0.05)
G0 Z1
G0 X0 y0
G0 Z0.5
G1 Z0.3333
(chilipeppr_pause drop0a G1 F100 X0.05)
G1 Z0.5(generate Drop 0b press: 0.05)
G0 Z1
G0 X2 y0
G0 Z0.5
G1 Z0.3333
(chilipeppr_pause drop0b G1 F100 X0.05)
G1 Z0.5(generate Drop 0c press: 0.05)
G0 Z1
G0 X4 y0
G0 Z0.5
G1 Z0.3333
(chilipeppr_pause drop0c G1 F100 X0.05)
G1 Z0.5(generate Drop 0d press: 0.05)
G0 Z1
G0 X6 y0
G0 Z0.5
G1 Z0.3333
(chilipeppr_pause drop0d G1 F100 X0.05)
G1 Z0.5(generate Drop 0e press: 0.05)
G0 Z1
G0 X8 y0
G0 Z0.5
G1 Z0.3333
(chilipeppr_pause drop0e G1 F100 X0.05)
G1 Z0.5(generate Drop 0f press: 0.05)
G0 Z1
G0 X10 y0
G0 Z0.5
G1 Z0.3333
(chilipeppr_pause drop0f G1 F100 X0.05)
G1 Z0.5(generate Drop 0g press: 0.05)
G0 Z1
G0 X12 y0
G0 Z0.5
G1 Z0.3333
(chilipeppr_pause drop0g G1 F100 X0.05)
G1 Z0.5(generate Drop 0h press: 0.05)
G0 Z1
G0 X14 y0
G0 Z0.5
G1 Z0.3333
(chilipeppr_pause drop0h G1 F100 X0.05)
G1 Z0.5(generate Drop 0i press: 0.05)
G0 Z1
G0 X16 y0
G0 Z0.5
G1 Z0.3333
(chilipeppr_pause drop0i G1 F100 X0.05)
G1 Z0.5(generate Drop 0j press: 0.05)
G0 Z1
G0 X18 y0
G0 Z0.5
G1 Z0.3333
(chilipeppr_pause drop0j G1 F100 X0.05)
G1 Z0.5(generate Drop 0k press: 0.05)
G0 Z1
G0 X20 y0
G0 Z0.5
G1 Z0.3333
(chilipeppr_pause drop0k G1 F100 X0.05)
G1 Z0.5(generate Drop 1a press: 0.1)
G0 Z1
G0 X0 y2
G0 Z0.5
G1 Z0.3333
(chilipeppr_pause drop1a G1 F100 X0.1)
G1 Z0.5(generate Drop 1b press: 0.1)
G0 Z1
G0 X2 y2
G0 Z0.5
G1 Z0.3333
(chilipeppr_pause drop1b G1 F100 X0.1)
G1 Z0.5(generate Drop 1c press: 0.1)
G0 Z1
G0 X4 y2
G0 Z0.5
G1 Z0.3333
(chilipeppr_pause drop1c G1 F100 X0.1)
G1 Z0.5(generate Drop 1d press: 0.1)
G0 Z1
G0 X6 y2
G0 Z0.5
G1 Z0.3333
(chilipeppr_pause drop1d G1 F100 X0.1)
G1 Z0.5(generate Drop 1e press: 0.1)
G0 Z1
G0 X8 y2
G0 Z0.5
G1 Z0.3333
(chilipeppr_pause drop1e G1 F100 X0.1)
G1 Z0.5(generate Drop 1f press: 0.1)
G0 Z1
G0 X10 y2
G0 Z0.5
G1 Z0.3333
(chilipeppr_pause drop1f G1 F100 X0.1)
G1 Z0.5(generate Drop 1g press: 0.1)
G0 Z1
G0 X12 y2
G0 Z0.5
G1 Z0.3333
(chilipeppr_pause drop1g G1 F100 X0.1)
G1 Z0.5(generate Drop 1h press: 0.1)
G0 Z1
G0 X14 y2
G0 Z0.5
G1 Z0.3333
(chilipeppr_pause drop1h G1 F100 X0.1)
G1 Z0.5(generate Drop 1i press: 0.1)
G0 Z1
G0 X16 y2
G0 Z0.5
G1 Z0.3333
(chilipeppr_pause drop1i G1 F100 X0.1)
G1 Z0.5(generate Drop 1j press: 0.1)
G0 Z1
G0 X18 y2
G0 Z0.5
G1 Z0.3333
(chilipeppr_pause drop1j G1 F100 X0.1)
G1 Z0.5(generate Drop 1k press: 0.1)
G0 Z1
G0 X20 y2
G0 Z0.5
G1 Z0.3333
(chilipeppr_pause drop1k G1 F100 X0.1)
G1 Z0.5(generate Drop 2a press: 0.15)
G0 Z1
G0 X0 y4
G0 Z0.5
G1 Z0.3333
(chilipeppr_pause drop2a G1 F100 X0.15)
G1 Z0.5(generate Drop 2b press: 0.15)
G0 Z1
G0 X2 y4
G0 Z0.5
G1 Z0.3333
(chilipeppr_pause drop2b G1 F100 X0.15)
G1 Z0.5(generate Drop 2c press: 0.15)
G0 Z1
G0 X4 y4
G0 Z0.5
G1 Z0.3333
(chilipeppr_pause drop2c G1 F100 X0.15)
G1 Z0.5(generate Drop 2d press: 0.15)
G0 Z1
G0 X6 y4
G0 Z0.5
G1 Z0.3333
(chilipeppr_pause drop2d G1 F100 X0.15)
G1 Z0.5(generate Drop 2e press: 0.15)
G0 Z1
G0 X8 y4
G0 Z0.5
G1 Z0.3333
(chilipeppr_pause drop2e G1 F100 X0.15)
G1 Z0.5(generate Drop 2f press: 0.15)
G0 Z1
G0 X10 y4
G0 Z0.5
G1 Z0.3333
(chilipeppr_pause drop2f G1 F100 X0.15)
G1 Z0.5(generate Drop 2g press: 0.15)
G0 Z1
G0 X12 y4
G0 Z0.5
G1 Z0.3333
(chilipeppr_pause drop2g G1 F100 X0.15)
G1 Z0.5(generate Drop 2h press: 0.15)
G0 Z1
G0 X14 y4
G0 Z0.5
G1 Z0.3333
(chilipeppr_pause drop2h G1 F100 X0.15)
G1 Z0.5(generate Drop 2i press: 0.15)
G0 Z1
G0 X16 y4
G0 Z0.5
G1 Z0.3333
(chilipeppr_pause drop2i G1 F100 X0.15)
G1 Z0.5(generate Drop 2j press: 0.15)
G0 Z1
G0 X18 y4
G0 Z0.5
G1 Z0.3333
(chilipeppr_pause drop2j G1 F100 X0.15)
G1 Z0.5(generate Drop 2k press: 0.15)
G0 Z1
G0 X20 y4
G0 Z0.5
G1 Z0.3333
(chilipeppr_pause drop2k G1 F100 X0.15)
G1 Z0.5(generate Drop 3a press: 0.2)
G0 Z1
G0 X0 y6
G0 Z0.5
G1 Z0.3333
(chilipeppr_pause drop3a G1 F100 X0.2)
G1 Z0.5(generate Drop 3b press: 0.2)
G0 Z1
G0 X2 y6
G0 Z0.5
G1 Z0.3333
(chilipeppr_pause drop3b G1 F100 X0.2)
G1 Z0.5(generate Drop 3c press: 0.2)
G0 Z1
G0 X4 y6
G0 Z0.5
G1 Z0.3333
(chilipeppr_pause drop3c G1 F100 X0.2)
G1 Z0.5(generate Drop 3d press: 0.2)
G0 Z1
G0 X6 y6
G0 Z0.5
G1 Z0.3333
(chilipeppr_pause drop3d G1 F100 X0.2)
G1 Z0.5(generate Drop 3e press: 0.2)
G0 Z1
G0 X8 y6
G0 Z0.5
G1 Z0.3333
(chilipeppr_pause drop3e G1 F100 X0.2)
G1 Z0.5(generate Drop 3f press: 0.2)
G0 Z1
G0 X10 y6
G0 Z0.5
G1 Z0.3333
(chilipeppr_pause drop3f G1 F100 X0.2)
G1 Z0.5(generate Drop 3g press: 0.2)
G0 Z1
G0 X12 y6
G0 Z0.5
G1 Z0.3333
(chilipeppr_pause drop3g G1 F100 X0.2)
G1 Z0.5(generate Drop 3h press: 0.2)
G0 Z1
G0 X14 y6
G0 Z0.5
G1 Z0.3333
(chilipeppr_pause drop3h G1 F100 X0.2)
G1 Z0.5(generate Drop 3i press: 0.2)
G0 Z1
G0 X16 y6
G0 Z0.5
G1 Z0.3333
(chilipeppr_pause drop3i G1 F100 X0.2)
G1 Z0.5(generate Drop 3j press: 0.2)
G0 Z1
G0 X18 y6
G0 Z0.5
G1 Z0.3333
(chilipeppr_pause drop3j G1 F100 X0.2)
G1 Z0.5(generate Drop 3k press: 0.2)
G0 Z1
G0 X20 y6
G0 Z0.5
G1 Z0.3333
(chilipeppr_pause drop3k G1 F100 X0.2)
G1 Z0.5(generate Drop 4a press: 0.25)
G0 Z1
G0 X0 y8
G0 Z0.5
G1 Z0.3333
(chilipeppr_pause drop4a G1 F100 X0.25)
G1 Z0.5(generate Drop 4b press: 0.25)
G0 Z1
G0 X2 y8
G0 Z0.5
G1 Z0.3333
(chilipeppr_pause drop4b G1 F100 X0.25)
G1 Z0.5(generate Drop 4c press: 0.25)
G0 Z1
G0 X4 y8
G0 Z0.5
G1 Z0.3333
(chilipeppr_pause drop4c G1 F100 X0.25)
G1 Z0.5(generate Drop 4d press: 0.25)
G0 Z1
G0 X6 y8
G0 Z0.5
G1 Z0.3333
(chilipeppr_pause drop4d G1 F100 X0.25)
G1 Z0.5(generate Drop 4e press: 0.25)
G0 Z1
G0 X8 y8
G0 Z0.5
G1 Z0.3333
(chilipeppr_pause drop4e G1 F100 X0.25)
G1 Z0.5(generate Drop 4f press: 0.25)
G0 Z1
G0 X10 y8
G0 Z0.5
G1 Z0.3333
(chilipeppr_pause drop4f G1 F100 X0.25)
G1 Z0.5(generate Drop 4g press: 0.25)
G0 Z1
G0 X12 y8
G0 Z0.5
G1 Z0.3333
(chilipeppr_pause drop4g G1 F100 X0.25)
G1 Z0.5(generate Drop 4h press: 0.25)
G0 Z1
G0 X14 y8
G0 Z0.5
G1 Z0.3333
(chilipeppr_pause drop4h G1 F100 X0.25)
G1 Z0.5(generate Drop 4i press: 0.25)
G0 Z1
G0 X16 y8
G0 Z0.5
G1 Z0.3333
(chilipeppr_pause drop4i G1 F100 X0.25)
G1 Z0.5(generate Drop 4j press: 0.25)
G0 Z1
G0 X18 y8
G0 Z0.5
G1 Z0.3333
(chilipeppr_pause drop4j G1 F100 X0.25)
G1 Z0.5(generate Drop 4k press: 0.25)
G0 Z1
G0 X20 y8
G0 Z0.5
G1 Z0.3333
(chilipeppr_pause drop4k G1 F100 X0.25)
G1 Z0.5(generate Drop 5a press: 0.3)
G0 Z1
G0 X0 y10
G0 Z0.5
G1 Z0.3333
(chilipeppr_pause drop5a G1 F100 X0.3)
G1 Z0.5(generate Drop 5b press: 0.3)
G0 Z1
G0 X2 y10
G0 Z0.5
G1 Z0.3333
(chilipeppr_pause drop5b G1 F100 X0.3)
G1 Z0.5(generate Drop 5c press: 0.3)
G0 Z1
G0 X4 y10
G0 Z0.5
G1 Z0.3333
(chilipeppr_pause drop5c G1 F100 X0.3)
G1 Z0.5(generate Drop 5d press: 0.3)
G0 Z1
G0 X6 y10
G0 Z0.5
G1 Z0.3333
(chilipeppr_pause drop5d G1 F100 X0.3)
G1 Z0.5(generate Drop 5e press: 0.3)
G0 Z1
G0 X8 y10
G0 Z0.5
G1 Z0.3333
(chilipeppr_pause drop5e G1 F100 X0.3)
G1 Z0.5(generate Drop 5f press: 0.3)
G0 Z1
G0 X10 y10
G0 Z0.5
G1 Z0.3333
(chilipeppr_pause drop5f G1 F100 X0.3)
G1 Z0.5(generate Drop 5g press: 0.3)
G0 Z1
G0 X12 y10
G0 Z0.5
G1 Z0.3333
(chilipeppr_pause drop5g G1 F100 X0.3)
G1 Z0.5(generate Drop 5h press: 0.3)
G0 Z1
G0 X14 y10
G0 Z0.5
G1 Z0.3333
(chilipeppr_pause drop5h G1 F100 X0.3)
G1 Z0.5(generate Drop 5i press: 0.3)
G0 Z1
G0 X16 y10
G0 Z0.5
G1 Z0.3333
(chilipeppr_pause drop5i G1 F100 X0.3)
G1 Z0.5(generate Drop 5j press: 0.3)
G0 Z1
G0 X18 y10
G0 Z0.5
G1 Z0.3333
(chilipeppr_pause drop5j G1 F100 X0.3)
G1 Z0.5(generate Drop 5k press: 0.3)
G0 Z1
G0 X20 y10
G0 Z0.5
G1 Z0.3333
(chilipeppr_pause drop5k G1 F100 X0.3)
G1 Z0.5(generate Drop 6a press: 0.35)
G0 Z1
G0 X0 y12
G0 Z0.5
G1 Z0.3333
(chilipeppr_pause drop6a G1 F100 X0.35)
G1 Z0.5(generate Drop 6b press: 0.35)
G0 Z1
G0 X2 y12
G0 Z0.5
G1 Z0.3333
(chilipeppr_pause drop6b G1 F100 X0.35)
G1 Z0.5(generate Drop 6c press: 0.35)
G0 Z1
G0 X4 y12
G0 Z0.5
G1 Z0.3333
(chilipeppr_pause drop6c G1 F100 X0.35)
G1 Z0.5(generate Drop 6d press: 0.35)
G0 Z1
G0 X6 y12
G0 Z0.5
G1 Z0.3333
(chilipeppr_pause drop6d G1 F100 X0.35)
G1 Z0.5(generate Drop 6e press: 0.35)
G0 Z1
G0 X8 y12
G0 Z0.5
G1 Z0.3333
(chilipeppr_pause drop6e G1 F100 X0.35)
G1 Z0.5(generate Drop 6f press: 0.35)
G0 Z1
G0 X10 y12
G0 Z0.5
G1 Z0.3333
(chilipeppr_pause drop6f G1 F100 X0.35)
G1 Z0.5(generate Drop 6g press: 0.35)
G0 Z1
G0 X12 y12
G0 Z0.5
G1 Z0.3333
(chilipeppr_pause drop6g G1 F100 X0.35)
G1 Z0.5(generate Drop 6h press: 0.35)
G0 Z1
G0 X14 y12
G0 Z0.5
G1 Z0.3333
(chilipeppr_pause drop6h G1 F100 X0.35)
G1 Z0.5(generate Drop 6i press: 0.35)
G0 Z1
G0 X16 y12
G0 Z0.5
G1 Z0.3333
(chilipeppr_pause drop6i G1 F100 X0.35)
G1 Z0.5(generate Drop 6j press: 0.35)
G0 Z1
G0 X18 y12
G0 Z0.5
G1 Z0.3333
(chilipeppr_pause drop6j G1 F100 X0.35)
G1 Z0.5(generate Drop 6k press: 0.35)
G0 Z1
G0 X20 y12
G0 Z0.5
G1 Z0.3333
(chilipeppr_pause drop6k G1 F100 X0.35)
G1 Z0.5(generate Drop 7a press: 0.4)
G0 Z1
G0 X0 y14
G0 Z0.5
G1 Z0.3333
(chilipeppr_pause drop7a G1 F100 X0.4)
G1 Z0.5(generate Drop 7b press: 0.4)
G0 Z1
G0 X2 y14
G0 Z0.5
G1 Z0.3333
(chilipeppr_pause drop7b G1 F100 X0.4)
G1 Z0.5(generate Drop 7c press: 0.4)
G0 Z1
G0 X4 y14
G0 Z0.5
G1 Z0.3333
(chilipeppr_pause drop7c G1 F100 X0.4)
G1 Z0.5(generate Drop 7d press: 0.4)
G0 Z1
G0 X6 y14
G0 Z0.5
G1 Z0.3333
(chilipeppr_pause drop7d G1 F100 X0.4)
G1 Z0.5(generate Drop 7e press: 0.4)
G0 Z1
G0 X8 y14
G0 Z0.5
G1 Z0.3333
(chilipeppr_pause drop7e G1 F100 X0.4)
G1 Z0.5(generate Drop 7f press: 0.4)
G0 Z1
G0 X10 y14
G0 Z0.5
G1 Z0.3333
(chilipeppr_pause drop7f G1 F100 X0.4)
G1 Z0.5(generate Drop 7g press: 0.4)
G0 Z1
G0 X12 y14
G0 Z0.5
G1 Z0.3333
(chilipeppr_pause drop7g G1 F100 X0.4)
G1 Z0.5(generate Drop 7h press: 0.4)
G0 Z1
G0 X14 y14
G0 Z0.5
G1 Z0.3333
(chilipeppr_pause drop7h G1 F100 X0.4)
G1 Z0.5(generate Drop 7i press: 0.4)
G0 Z1
G0 X16 y14
G0 Z0.5
G1 Z0.3333
(chilipeppr_pause drop7i G1 F100 X0.4)
G1 Z0.5(generate Drop 7j press: 0.4)
G0 Z1
G0 X18 y14
G0 Z0.5
G1 Z0.3333
(chilipeppr_pause drop7j G1 F100 X0.4)
G1 Z0.5(generate Drop 7k press: 0.4)
G0 Z1
G0 X20 y14
G0 Z0.5
G1 Z0.3333
(chilipeppr_pause drop7k G1 F100 X0.4)
G1 Z0.5(generate Drop 8a press: 0.45)
G0 Z1
G0 X0 y16
G0 Z0.5
G1 Z0.3333
(chilipeppr_pause drop8a G1 F100 X0.45)
G1 Z0.5(generate Drop 8b press: 0.45)
G0 Z1
G0 X2 y16
G0 Z0.5
G1 Z0.3333
(chilipeppr_pause drop8b G1 F100 X0.45)
G1 Z0.5(generate Drop 8c press: 0.45)
G0 Z1
G0 X4 y16
G0 Z0.5
G1 Z0.3333
(chilipeppr_pause drop8c G1 F100 X0.45)
G1 Z0.5(generate Drop 8d press: 0.45)
G0 Z1
G0 X6 y16
G0 Z0.5
G1 Z0.3333
(chilipeppr_pause drop8d G1 F100 X0.45)
G1 Z0.5(generate Drop 8e press: 0.45)
G0 Z1
G0 X8 y16
G0 Z0.5
G1 Z0.3333
(chilipeppr_pause drop8e G1 F100 X0.45)
G1 Z0.5(generate Drop 8f press: 0.45)
G0 Z1
G0 X10 y16
G0 Z0.5
G1 Z0.3333
(chilipeppr_pause drop8f G1 F100 X0.45)
G1 Z0.5(generate Drop 8g press: 0.45)
G0 Z1
G0 X12 y16
G0 Z0.5
G1 Z0.3333
(chilipeppr_pause drop8g G1 F100 X0.45)
G1 Z0.5(generate Drop 8h press: 0.45)
G0 Z1
G0 X14 y16
G0 Z0.5
G1 Z0.3333
(chilipeppr_pause drop8h G1 F100 X0.45)
G1 Z0.5(generate Drop 8i press: 0.45)
G0 Z1
G0 X16 y16
G0 Z0.5
G1 Z0.3333
(chilipeppr_pause drop8i G1 F100 X0.45)
G1 Z0.5(generate Drop 8j press: 0.45)
G0 Z1
G0 X18 y16
G0 Z0.5
G1 Z0.3333
(chilipeppr_pause drop8j G1 F100 X0.45)
G1 Z0.5(generate Drop 8k press: 0.45)
G0 Z1
G0 X20 y16
G0 Z0.5
G1 Z0.3333
(chilipeppr_pause drop8k G1 F100 X0.45)
G1 Z0.5(generate Drop 9a press: 0.5)
G0 Z1
G0 X0 y18
G0 Z0.5
G1 Z0.3333
(chilipeppr_pause drop9a G1 F100 X0.5)
G1 Z0.5(generate Drop 9b press: 0.5)
G0 Z1
G0 X2 y18
G0 Z0.5
G1 Z0.3333
(chilipeppr_pause drop9b G1 F100 X0.5)
G1 Z0.5(generate Drop 9c press: 0.5)
G0 Z1
G0 X4 y18
G0 Z0.5
G1 Z0.3333
(chilipeppr_pause drop9c G1 F100 X0.5)
G1 Z0.5(generate Drop 9d press: 0.5)
G0 Z1
G0 X6 y18
G0 Z0.5
G1 Z0.3333
(chilipeppr_pause drop9d G1 F100 X0.5)
G1 Z0.5(generate Drop 9e press: 0.5)
G0 Z1
G0 X8 y18
G0 Z0.5
G1 Z0.3333
(chilipeppr_pause drop9e G1 F100 X0.5)
G1 Z0.5(generate Drop 9f press: 0.5)
G0 Z1
G0 X10 y18
G0 Z0.5
G1 Z0.3333
(chilipeppr_pause drop9f G1 F100 X0.5)
G1 Z0.5(generate Drop 9g press: 0.5)
G0 Z1
G0 X12 y18
G0 Z0.5
G1 Z0.3333
(chilipeppr_pause drop9g G1 F100 X0.5)
G1 Z0.5(generate Drop 9h press: 0.5)
G0 Z1
G0 X14 y18
G0 Z0.5
G1 Z0.3333
(chilipeppr_pause drop9h G1 F100 X0.5)
G1 Z0.5(generate Drop 9i press: 0.5)
G0 Z1
G0 X16 y18
G0 Z0.5
G1 Z0.3333
(chilipeppr_pause drop9i G1 F100 X0.5)
G1 Z0.5(generate Drop 9j press: 0.5)
G0 Z1
G0 X18 y18
G0 Z0.5
G1 Z0.3333
(chilipeppr_pause drop9j G1 F100 X0.5)
G1 Z0.5(generate Drop 9k press: 0.5)
G0 Z1
G0 X20 y18
G0 Z0.5
G1 Z0.3333
(chilipeppr_pause drop9k G1 F100 X0.5)
G1 Z0.5(generate Drop 10a press: 0.55)
G0 Z1
G0 X0 y20
G0 Z0.5
G1 Z0.3333
(chilipeppr_pause drop10a G1 F100 X0.55)
G1 Z0.5(generate Drop 10b press: 0.55)
G0 Z1
G0 X2 y20
G0 Z0.5
G1 Z0.3333
(chilipeppr_pause drop10b G1 F100 X0.55)
G1 Z0.5(generate Drop 10c press: 0.55)
G0 Z1
G0 X4 y20
G0 Z0.5
G1 Z0.3333
(chilipeppr_pause drop10c G1 F100 X0.55)
G1 Z0.5(generate Drop 10d press: 0.55)
G0 Z1
G0 X6 y20
G0 Z0.5
G1 Z0.3333
(chilipeppr_pause drop10d G1 F100 X0.55)
G1 Z0.5(generate Drop 10e press: 0.55)
G0 Z1
G0 X8 y20
G0 Z0.5
G1 Z0.3333
(chilipeppr_pause drop10e G1 F100 X0.55)
G1 Z0.5(generate Drop 10f press: 0.55)
G0 Z1
G0 X10 y20
G0 Z0.5
G1 Z0.3333
(chilipeppr_pause drop10f G1 F100 X0.55)
G1 Z0.5(generate Drop 10g press: 0.55)
G0 Z1
G0 X12 y20
G0 Z0.5
G1 Z0.3333
(chilipeppr_pause drop10g G1 F100 X0.55)
G1 Z0.5(generate Drop 10h press: 0.55)
G0 Z1
G0 X14 y20
G0 Z0.5
G1 Z0.3333
(chilipeppr_pause drop10h G1 F100 X0.55)
G1 Z0.5(generate Drop 10i press: 0.55)
G0 Z1
G0 X16 y20
G0 Z0.5
G1 Z0.3333
(chilipeppr_pause drop10i G1 F100 X0.55)
G1 Z0.5(generate Drop 10j press: 0.55)
G0 Z1
G0 X18 y20
G0 Z0.5
G1 Z0.3333
(chilipeppr_pause drop10j G1 F100 X0.55)
G1 Z0.5(generate Drop 10k press: 0.55)
G0 Z1
G0 X20 y20
G0 Z0.5
G1 Z0.3333
(chilipeppr_pause drop10k G1 F100 X0.55)
G1 Z0.5
M5 (spindle stop)
M30 (prog stop)
