(Gcode generated by ./create_dispenser_calibrate_gcode.pl for Eagle PCB Widget Tue Dec  1 14:26:21 2015)
G21 (mm mode)
G90 (abs mode)
M3 (spindle on)
TO M6 (set tool)
(------ DISPENSER DROP's -------)
M5 (spindle stop)
G0 X0 Y0 Z3
G0 Z0.11
(chilipeppr_pause drop0a G1 F100 X0.1)
G1 F200 Z3
G0 X2 y0
G0 Z0.11
(chilipeppr_pause drop0b G1 F100 X0.1)
G1 F200 Z3
G0 X4 y0
G0 Z0.11
(chilipeppr_pause drop0c G1 F100 X0.1)
G1 F200 Z3
G0 X6 y0
G0 Z0.11
(chilipeppr_pause drop0d G1 F100 X0.1)
G1 F200 Z3
G0 X8 y0
G0 Z0.11
(chilipeppr_pause drop0e G1 F100 X0.1)
G1 F200 Z3
G0 X10 y0
G0 Z0.11
(chilipeppr_pause drop0f G1 F100 X0.1)
G1 F200 Z3
G0 X0 y2
G0 Z0.11
(chilipeppr_pause drop1a G1 F100 X0.2)
G1 F200 Z3
G0 X2 y2
G0 Z0.11
(chilipeppr_pause drop1b G1 F100 X0.2)
G1 F200 Z3
G0 X4 y2
G0 Z0.11
(chilipeppr_pause drop1c G1 F100 X0.2)
G1 F200 Z3
G0 X6 y2
G0 Z0.11
(chilipeppr_pause drop1d G1 F100 X0.2)
G1 F200 Z3
G0 X8 y2
G0 Z0.11
(chilipeppr_pause drop1e G1 F100 X0.2)
G1 F200 Z3
G0 X10 y2
G0 Z0.11
(chilipeppr_pause drop1f G1 F100 X0.2)
G1 F200 Z3
G0 X0 y4
G0 Z0.11
(chilipeppr_pause drop2a G1 F100 X0.3)
G1 F200 Z3
G0 X2 y4
G0 Z0.11
(chilipeppr_pause drop2b G1 F100 X0.3)
G1 F200 Z3
G0 X4 y4
G0 Z0.11
(chilipeppr_pause drop2c G1 F100 X0.3)
G1 F200 Z3
G0 X6 y4
G0 Z0.11
(chilipeppr_pause drop2d G1 F100 X0.3)
G1 F200 Z3
G0 X8 y4
G0 Z0.11
(chilipeppr_pause drop2e G1 F100 X0.3)
G1 F200 Z3
G0 X10 y4
G0 Z0.11
(chilipeppr_pause drop2f G1 F100 X0.3)
G1 F200 Z3
G0 X0 y6
G0 Z0.11
(chilipeppr_pause drop3a G1 F100 X0.4)
G1 F200 Z3
G0 X2 y6
G0 Z0.11
(chilipeppr_pause drop3b G1 F100 X0.4)
G1 F200 Z3
G0 X4 y6
G0 Z0.11
(chilipeppr_pause drop3c G1 F100 X0.4)
G1 F200 Z3
G0 X6 y6
G0 Z0.11
(chilipeppr_pause drop3d G1 F100 X0.4)
G1 F200 Z3
G0 X8 y6
G0 Z0.11
(chilipeppr_pause drop3e G1 F100 X0.4)
G1 F200 Z3
G0 X10 y6
G0 Z0.11
(chilipeppr_pause drop3f G1 F100 X0.4)
G1 F200 Z3
G0 X0 y8
G0 Z0.11
(chilipeppr_pause drop4a G1 F100 X0.5)
G1 F200 Z3
G0 X2 y8
G0 Z0.11
(chilipeppr_pause drop4b G1 F100 X0.5)
G1 F200 Z3
G0 X4 y8
G0 Z0.11
(chilipeppr_pause drop4c G1 F100 X0.5)
G1 F200 Z3
G0 X6 y8
G0 Z0.11
(chilipeppr_pause drop4d G1 F100 X0.5)
G1 F200 Z3
G0 X8 y8
G0 Z0.11
(chilipeppr_pause drop4e G1 F100 X0.5)
G1 F200 Z3
G0 X10 y8
G0 Z0.11
(chilipeppr_pause drop4f G1 F100 X0.5)
G1 F200 Z3
G0 X0 y10
G0 Z0.11
(chilipeppr_pause drop5a G1 F100 X0.6)
G1 F200 Z3
G0 X2 y10
G0 Z0.11
(chilipeppr_pause drop5b G1 F100 X0.6)
G1 F200 Z3
G0 X4 y10
G0 Z0.11
(chilipeppr_pause drop5c G1 F100 X0.6)
G1 F200 Z3
G0 X6 y10
G0 Z0.11
(chilipeppr_pause drop5d G1 F100 X0.6)
G1 F200 Z3
G0 X8 y10
G0 Z0.11
(chilipeppr_pause drop5e G1 F100 X0.6)
G1 F200 Z3
G0 X10 y10
G0 Z0.11
(chilipeppr_pause drop5f G1 F100 X0.6)
G1 F200 Z3

G0 X50 y50 Z20

M5 (spindle stop)
M30 (prog stop)
