( Made using CamBam - http://www.cambam.co.uk )
( PnPHolder 12/4/2015 4:19:56 PM )
( T3 : 3.0 )
G21 G90 G64 G40
G0 Z3.0
( T3 : 3.0 )
T3 M6
( Magnet )
G17
M3 S1000
G0 X10.15 Y60.0
G0 Z1.0
G1 F300.0 Z-1.0
G2 F800.0 X9.925 Y59.8701 I-0.15 J0.0
G2 Y60.1299 I0.075 J0.1299
G2 X10.15 Y60.0 I0.075 J-0.1299
G1 F300.0 X11.35
G2 F800.0 X9.325 Y58.8309 I-1.35 J0.0
G2 Y61.1691 I0.675 J1.1691
G2 X11.35 Y60.0 I0.675 J-1.1691
G1 F300.0 X12.55
G2 F800.0 X8.725 Y57.7916 I-2.55 J0.0
G2 Y62.2084 I1.275 J2.2084
G2 X12.55 Y60.0 I1.275 J-2.2084
G0 Z3.0
G0 X10.15
G0 Z0.0
G1 F300.0 Z-2.0
G2 F800.0 X9.925 Y59.8701 I-0.15 J0.0
G2 Y60.1299 I0.075 J0.1299
G2 X10.15 Y60.0 I0.075 J-0.1299
G1 F300.0 X11.35
G2 F800.0 X9.325 Y58.8309 I-1.35 J0.0
G2 Y61.1691 I0.675 J1.1691
G2 X11.35 Y60.0 I0.675 J-1.1691
G1 F300.0 X12.55
G2 F800.0 X8.725 Y57.7916 I-2.55 J0.0
G2 Y62.2084 I1.275 J2.2084
G2 X12.55 Y60.0 I1.275 J-2.2084
G0 Z3.0
G0 X10.15
G0 Z-1.0
G1 F300.0 Z-3.0
G2 F800.0 X9.925 Y59.8701 I-0.15 J0.0
G2 Y60.1299 I0.075 J0.1299
G2 X10.15 Y60.0 I0.075 J-0.1299
G1 F300.0 X11.35
G2 F800.0 X9.325 Y58.8309 I-1.35 J0.0
G2 Y61.1691 I0.675 J1.1691
G2 X11.35 Y60.0 I0.675 J-1.1691
G1 F300.0 X12.55
G2 F800.0 X8.725 Y57.7916 I-2.55 J0.0
G2 Y62.2084 I1.275 J2.2084
G2 X12.55 Y60.0 I1.275 J-2.2084
G0 Z3.0
G0 X10.15
G0 Z-2.0
G1 F300.0 Z-3.1
G2 F800.0 X9.925 Y59.8701 I-0.15 J0.0
G2 Y60.1299 I0.075 J0.1299
G2 X10.15 Y60.0 I0.075 J-0.1299
G1 F300.0 X11.35
G2 F800.0 X9.325 Y58.8309 I-1.35 J0.0
G2 Y61.1691 I0.675 J1.1691
G2 X11.35 Y60.0 I0.675 J-1.1691
G1 F300.0 X12.55
G2 F800.0 X8.725 Y57.7916 I-2.55 J0.0
G2 Y62.2084 I1.275 J2.2084
G2 X12.55 Y60.0 I1.275 J-2.2084
G0 Z3.0
G0 X105.85
G0 Z1.0
G1 F300.0 Z-1.0
G2 F800.0 X105.925 Y60.1299 I0.15 J0.0
G2 X106.15 Y60.0 I0.075 J-0.1299
G2 X105.925 Y59.8701 I-0.15 J0.0
G2 X105.85 Y60.0 I0.075 J0.1299
G1 F300.0 X104.65
G2 F800.0 X105.325 Y61.1691 I1.35 J0.0
G2 X107.35 Y60.0 I0.675 J-1.1691
G2 X105.325 Y58.8309 I-1.35 J0.0
G2 X104.65 Y60.0 I0.675 J1.1691
G1 F300.0 X103.45
G2 F800.0 X104.725 Y62.2084 I2.55 J0.0
G2 X108.55 Y60.0 I1.275 J-2.2084
G2 X104.725 Y57.7916 I-2.55 J0.0
G2 X103.45 Y60.0 I1.275 J2.2084
G0 Z3.0
G0 X105.85
G0 Z0.0
G1 F300.0 Z-2.0
G2 F800.0 X105.925 Y60.1299 I0.15 J0.0
G2 X106.15 Y60.0 I0.075 J-0.1299
G2 X105.925 Y59.8701 I-0.15 J0.0
G2 X105.85 Y60.0 I0.075 J0.1299
G1 F300.0 X104.65
G2 F800.0 X105.325 Y61.1691 I1.35 J0.0
G2 X107.35 Y60.0 I0.675 J-1.1691
G2 X105.325 Y58.8309 I-1.35 J0.0
G2 X104.65 Y60.0 I0.675 J1.1691
G1 F300.0 X103.45
G2 F800.0 X104.725 Y62.2084 I2.55 J0.0
G2 X108.55 Y60.0 I1.275 J-2.2084
G2 X104.725 Y57.7916 I-2.55 J0.0
G2 X103.45 Y60.0 I1.275 J2.2084
G0 Z3.0
G0 X105.85
G0 Z-1.0
G1 F300.0 Z-3.0
G2 F800.0 X105.925 Y60.1299 I0.15 J0.0
G2 X106.15 Y60.0 I0.075 J-0.1299
G2 X105.925 Y59.8701 I-0.15 J0.0
G2 X105.85 Y60.0 I0.075 J0.1299
G1 F300.0 X104.65
G2 F800.0 X105.325 Y61.1691 I1.35 J0.0
G2 X107.35 Y60.0 I0.675 J-1.1691
G2 X105.325 Y58.8309 I-1.35 J0.0
G2 X104.65 Y60.0 I0.675 J1.1691
G1 F300.0 X103.45
G2 F800.0 X104.725 Y62.2084 I2.55 J0.0
G2 X108.55 Y60.0 I1.275 J-2.2084
G2 X104.725 Y57.7916 I-2.55 J0.0
G2 X103.45 Y60.0 I1.275 J2.2084
G0 Z3.0
G0 X105.85
G0 Z-2.0
G1 F300.0 Z-3.1
G2 F800.0 X105.925 Y60.1299 I0.15 J0.0
G2 X106.15 Y60.0 I0.075 J-0.1299
G2 X105.925 Y59.8701 I-0.15 J0.0
G2 X105.85 Y60.0 I0.075 J0.1299
G1 F300.0 X104.65
G2 F800.0 X105.325 Y61.1691 I1.35 J0.0
G2 X107.35 Y60.0 I0.675 J-1.1691
G2 X105.325 Y58.8309 I-1.35 J0.0
G2 X104.65 Y60.0 I0.675 J1.1691
G1 F300.0 X103.45
G2 F800.0 X104.725 Y62.2084 I2.55 J0.0
G2 X108.55 Y60.0 I1.275 J-2.2084
G2 X104.725 Y57.7916 I-2.55 J0.0
G2 X103.45 Y60.0 I1.275 J2.2084
( Pockets )
G61
S1000
G0 Z3.0
G0 X23.9 Y-1.1
G0 Z1.0
G1 F300.0 Z-1.0
G1 F800.0 Y101.1
G1 X24.2
G1 Y-1.1
G1 X23.9
G1 F300.0 Y-2.3
G1 F800.0 X22.7
G1 Y102.3
G1 X25.4
G1 Y-2.3
G1 X23.9
G1 F300.0 Y-3.5
G1 F800.0 X26.6
G1 Y103.5
G1 X21.5
G1 Y-3.5
G1 X23.9
G0 Z3.0
G0 Y-1.1
G0 Z0.0
G1 F300.0 Z-1.1
G1 F800.0 Y101.1
G1 X24.2
G1 Y-1.1
G1 X23.9
G1 F300.0 Y-2.3
G1 F800.0 X22.7
G1 Y102.3
G1 X25.4
G1 Y-2.3
G1 X23.9
G1 F300.0 Y-3.5
G1 F800.0 X26.6
G1 Y103.5
G1 X21.5
G1 Y-3.5
G1 X23.9
G0 Z3.0
G0 X33.9 Y-1.1
G0 Z1.0
G1 F300.0 Z-1.0
G1 F800.0 Y101.1
G1 X34.2
G1 Y-1.1
G1 X33.9
G1 F300.0 X32.7
G1 F800.0 Y102.3
G1 X35.4
G1 Y-2.3
G1 X32.7
G1 Y-1.1
G1 F300.0 X31.5
G1 F800.0 Y-3.5
G1 X36.6
G1 Y103.5
G1 X31.5
G1 Y-1.1
G0 Z3.0
G0 X33.9
G0 Z0.0
G1 F300.0 Z-1.1
G1 F800.0 Y101.1
G1 X34.2
G1 Y-1.1
G1 X33.9
G1 F300.0 X32.7
G1 F800.0 Y102.3
G1 X35.4
G1 Y-2.3
G1 X32.7
G1 Y-1.1
G1 F300.0 X31.5
G1 F800.0 Y-3.5
G1 X36.6
G1 Y103.5
G1 X31.5
G1 Y-1.1
G0 Z3.0
G0 X43.9
G0 Z1.0
G1 F300.0 Z-1.0
G1 F800.0 Y101.1
G1 X44.2
G1 Y-1.1
G1 X43.9
G1 F300.0 X42.7
G1 F800.0 Y102.3
G1 X45.4
G1 Y-2.3
G1 X42.7
G1 Y-1.1
G1 F300.0 X41.5
G1 F800.0 Y-3.5
G1 X46.6
G1 Y103.5
G1 X41.5
G1 Y-1.1
G0 Z3.0
G0 X43.9
G0 Z0.0
G1 F300.0 Z-1.1
G1 F800.0 Y101.1
G1 X44.2
G1 Y-1.1
G1 X43.9
G1 F300.0 X42.7
G1 F800.0 Y102.3
G1 X45.4
G1 Y-2.3
G1 X42.7
G1 Y-1.1
G1 F300.0 X41.5
G1 F800.0 Y-3.5
G1 X46.6
G1 Y103.5
G1 X41.5
G1 Y-1.1
G0 Z3.0
G0 X53.9
G0 Z1.0
G1 F300.0 Z-1.0
G1 F800.0 Y101.1
G1 X54.2
G1 Y-1.1
G1 X53.9
G1 F300.0 Y-2.3
G1 F800.0 X52.7
G1 Y102.3
G1 X55.4
G1 Y-2.3
G1 X53.9
G1 F300.0 Y-3.5
G1 F800.0 X56.6
G1 Y103.5
G1 X51.5
G1 Y-3.5
G1 X53.9
G0 Z3.0
G0 Y-1.1
G0 Z0.0
G1 F300.0 Z-1.1
G1 F800.0 Y101.1
G1 X54.2
G1 Y-1.1
G1 X53.9
G1 F300.0 Y-2.3
G1 F800.0 X52.7
G1 Y102.3
G1 X55.4
G1 Y-2.3
G1 X53.9
G1 F300.0 Y-3.5
G1 F800.0 X56.6
G1 Y103.5
G1 X51.5
G1 Y-3.5
G1 X53.9
G0 Z3.0
G0 X63.9 Y-1.1
G0 Z1.0
G1 F300.0 Z-1.0
G1 F800.0 Y101.1
G1 X64.2
G1 Y-1.1
G1 X63.9
G1 F300.0 X62.7
G1 F800.0 Y102.3
G1 X65.4
G1 Y-2.3
G1 X62.7
G1 Y-1.1
G1 F300.0 X61.5
G1 F800.0 Y-3.5
G1 X66.6
G1 Y103.5
G1 X61.5
G1 Y-1.1
G0 Z3.0
G0 X63.9
G0 Z0.0
G1 F300.0 Z-1.1
G1 F800.0 Y101.1
G1 X64.2
G1 Y-1.1
G1 X63.9
G1 F300.0 X62.7
G1 F800.0 Y102.3
G1 X65.4
G1 Y-2.3
G1 X62.7
G1 Y-1.1
G1 F300.0 X61.5
G1 F800.0 Y-3.5
G1 X66.6
G1 Y103.5
G1 X61.5
G1 Y-1.1
G0 Z3.0
G0 X75.7 Y0.7
G0 Z1.0
G1 F300.0 Z-1.0
G1 F800.0 Y99.3
G1 X76.4
G1 Y0.7
G1 X75.7
G1 F300.0 Y0.1
G1 F800.0 X75.1
G1 Y99.9
G1 X77.0
G1 Y0.1
G1 X75.7
G1 F300.0 Y-1.1
G1 F800.0 X73.9
G1 Y101.1
G1 X78.2
G1 Y-1.1
G1 X75.7
G1 F300.0 Y-2.3
G1 F800.0 X72.7
G1 Y102.3
G1 X79.4
G1 Y-2.3
G1 X75.7
G1 F300.0 Y-3.5
G1 F800.0 X80.6
G1 Y103.5
G1 X71.5
G1 Y-3.5
G1 X75.7
G0 Z3.0
G0 Y0.7
G0 Z0.0
G1 F300.0 Z-1.1
G1 F800.0 Y99.3
G1 X76.4
G1 Y0.7
G1 X75.7
G1 F300.0 Y0.1
G1 F800.0 X75.1
G1 Y99.9
G1 X77.0
G1 Y0.1
G1 X75.7
G1 F300.0 Y-1.1
G1 F800.0 X73.9
G1 Y101.1
G1 X78.2
G1 Y-1.1
G1 X75.7
G1 F300.0 Y-2.3
G1 F800.0 X72.7
G1 Y102.3
G1 X79.4
G1 Y-2.3
G1 X75.7
G1 F300.0 Y-3.5
G1 F800.0 X80.6
G1 Y103.5
G1 X71.5
G1 Y-3.5
G1 X75.7
G0 Z3.0
G0 X89.7 Y0.7
G0 Z1.0
G1 F300.0 Z-1.0
G1 F800.0 Y99.3
G1 X90.4
G1 Y0.7
G1 X89.7
G1 F300.0 Y0.1
G1 F800.0 X89.1
G1 Y99.9
G1 X91.0
G1 Y0.1
G1 X89.7
G1 F300.0 Y-1.1
G1 F800.0 X87.9
G1 Y101.1
G1 X92.2
G1 Y-1.1
G1 X89.7
G1 F300.0 Y-2.3
G1 F800.0 X86.7
G1 Y102.3
G1 X93.4
G1 Y-2.3
G1 X89.7
G1 F300.0 Y-3.5
G1 F800.0 X94.6
G1 Y103.5
G1 X85.5
G1 Y-3.5
G1 X89.7
G0 Z3.0
G0 Y0.7
G0 Z0.0
G1 F300.0 Z-1.1
G1 F800.0 Y99.3
G1 X90.4
G1 Y0.7
G1 X89.7
G1 F300.0 Y0.1
G1 F800.0 X89.1
G1 Y99.9
G1 X91.0
G1 Y0.1
G1 X89.7
G1 F300.0 Y-1.1
G1 F800.0 X87.9
G1 Y101.1
G1 X92.2
G1 Y-1.1
G1 X89.7
G1 F300.0 Y-2.3
G1 F800.0 X86.7
G1 Y102.3
G1 X93.4
G1 Y-2.3
G1 X89.7
G1 F300.0 Y-3.5
G1 F800.0 X94.6
G1 Y103.5
G1 X85.5
G1 Y-3.5
G1 X89.7
G0 Z3.0
G0 X105.9 Y8.9
G0 Z1.0
G1 F300.0 Z-1.0
G1 F800.0 Y10.1
G1 X107.1
G1 Y8.9
G1 X105.9
G1 F300.0 Y8.3
G1 F800.0 X105.3
G1 Y10.7
G1 X107.7
G1 Y8.3
G1 X105.9
G1 F300.0 Y7.1
G1 F800.0 X104.1
G1 Y11.9
G1 X108.9
G1 Y7.1
G1 X105.9
G1 F300.0 Y5.9
G1 F800.0 X102.9
G1 Y13.1
G1 X110.1
G1 Y5.9
G1 X105.9
G1 F300.0 Y4.7
G1 F800.0 X101.7
G1 Y14.3
G1 X111.3
G1 Y4.7
G1 X105.9
G1 F300.0 Y3.5
G1 F800.0 X112.5
G1 Y15.5
G1 X100.5
G1 Y3.5
G1 X105.9
G0 Z3.0
G0 Y8.9
G0 Z0.0
G1 F300.0 Z-1.1
G1 F800.0 Y10.1
G1 X107.1
G1 Y8.9
G1 X105.9
G1 F300.0 Y8.3
G1 F800.0 X105.3
G1 Y10.7
G1 X107.7
G1 Y8.3
G1 X105.9
G1 F300.0 Y7.1
G1 F800.0 X104.1
G1 Y11.9
G1 X108.9
G1 Y7.1
G1 X105.9
G1 F300.0 Y5.9
G1 F800.0 X102.9
G1 Y13.1
G1 X110.1
G1 Y5.9
G1 X105.9
G1 F300.0 Y4.7
G1 F800.0 X101.7
G1 Y14.3
G1 X111.3
G1 Y4.7
G1 X105.9
G1 F300.0 Y3.5
G1 F800.0 X112.5
G1 Y15.5
G1 X100.5
G1 Y3.5
G1 X105.9
G0 Z3.0
G0 X122.9 Y8.9
G0 Z1.0
G1 F300.0 Z-1.0
G1 F800.0 Y10.1
G1 X124.1
G1 Y8.9
G1 X122.9
G1 F300.0 X122.3
G1 F800.0 Y10.7
G1 X124.7
G1 Y8.3
G1 X122.3
G1 Y8.9
G1 F300.0 X121.1
G1 F800.0 Y11.9
G1 X125.9
G1 Y7.1
G1 X121.1
G1 Y8.9
G1 F300.0 X119.9
G1 F800.0 Y13.1
G1 X127.1
G1 Y5.9
G1 X119.9
G1 Y8.9
G1 F300.0 X118.7
G1 F800.0 Y14.3
G1 X128.3
G1 Y4.7
G1 X118.7
G1 Y8.9
G1 F300.0 X117.5
G1 F800.0 Y3.5
G1 X129.5
G1 Y15.5
G1 X117.5
G1 Y8.9
G0 Z3.0
G0 X122.9
G0 Z0.0
G1 F300.0 Z-1.1
G1 F800.0 Y10.1
G1 X124.1
G1 Y8.9
G1 X122.9
G1 F300.0 X122.3
G1 F800.0 Y10.7
G1 X124.7
G1 Y8.3
G1 X122.3
G1 Y8.9
G1 F300.0 X121.1
G1 F800.0 Y11.9
G1 X125.9
G1 Y7.1
G1 X121.1
G1 Y8.9
G1 F300.0 X119.9
G1 F800.0 Y13.1
G1 X127.1
G1 Y5.9
G1 X119.9
G1 Y8.9
G1 F300.0 X118.7
G1 F800.0 Y14.3
G1 X128.3
G1 Y4.7
G1 X118.7
G1 Y8.9
G1 F300.0 X117.5
G1 F800.0 Y3.5
G1 X129.5
G1 Y15.5
G1 X117.5
G1 Y8.9
G0 Z3.0
G0 X122.9 Y25.9
G0 Z1.0
G1 F300.0 Z-1.0
G1 F800.0 Y27.1
G1 X124.1
G1 Y25.9
G1 X122.9
G1 F300.0 Y25.3
G1 F800.0 X122.3
G1 Y27.7
G1 X124.7
G1 Y25.3
G1 X122.9
G1 F300.0 Y24.1
G1 F800.0 X121.1
G1 Y28.9
G1 X125.9
G1 Y24.1
G1 X122.9
G1 F300.0 Y22.9
G1 F800.0 X119.9
G1 Y30.1
G1 X127.1
G1 Y22.9
G1 X122.9
G1 F300.0 Y21.7
G1 F800.0 X118.7
G1 Y31.3
G1 X128.3
G1 Y21.7
G1 X122.9
G1 F300.0 Y20.5
G1 F800.0 X129.5
G1 Y32.5
G1 X117.5
G1 Y20.5
G1 X122.9
G0 Z3.0
G0 Y25.9
G0 Z0.0
G1 F300.0 Z-1.1
G1 F800.0 Y27.1
G1 X124.1
G1 Y25.9
G1 X122.9
G1 F300.0 Y25.3
G1 F800.0 X122.3
G1 Y27.7
G1 X124.7
G1 Y25.3
G1 X122.9
G1 F300.0 Y24.1
G1 F800.0 X121.1
G1 Y28.9
G1 X125.9
G1 Y24.1
G1 X122.9
G1 F300.0 Y22.9
G1 F800.0 X119.9
G1 Y30.1
G1 X127.1
G1 Y22.9
G1 X122.9
G1 F300.0 Y21.7
G1 F800.0 X118.7
G1 Y31.3
G1 X128.3
G1 Y21.7
G1 X122.9
G1 F300.0 Y20.5
G1 F800.0 X129.5
G1 Y32.5
G1 X117.5
G1 Y20.5
G1 X122.9
G0 Z3.0
G0 X107.1 Y25.9
G0 Z1.0
G1 F300.0 Z-1.0
G1 F800.0 X105.9
G1 Y27.1
G1 X107.1
G1 Y25.9
G1 F300.0 Y25.3
G1 F800.0 X105.3
G1 Y27.7
G1 X107.7
G1 Y25.3
G1 X107.1
G1 F300.0 Y24.1
G1 F800.0 X104.1
G1 Y28.9
G1 X108.9
G1 Y24.1
G1 X107.1
G1 F300.0 Y22.9
G1 F800.0 X102.9
G1 Y30.1
G1 X110.1
G1 Y22.9
G1 X107.1
G1 F300.0 Y21.7
G1 F800.0 X101.7
G1 Y31.3
G1 X111.3
G1 Y21.7
G1 X107.1
G1 F300.0 Y20.5
G1 F800.0 X112.5
G1 Y32.5
G1 X100.5
G1 Y20.5
G1 X107.1
G0 Z3.0
G0 Y25.9
G0 Z0.0
G1 F300.0 Z-1.1
G1 F800.0 X105.9
G1 Y27.1
G1 X107.1
G1 Y25.9
G1 F300.0 Y25.3
G1 F800.0 X105.3
G1 Y27.7
G1 X107.7
G1 Y25.3
G1 X107.1
G1 F300.0 Y24.1
G1 F800.0 X104.1
G1 Y28.9
G1 X108.9
G1 Y24.1
G1 X107.1
G1 F300.0 Y22.9
G1 F800.0 X102.9
G1 Y30.1
G1 X110.1
G1 Y22.9
G1 X107.1
G1 F300.0 Y21.7
G1 F800.0 X101.7
G1 Y31.3
G1 X111.3
G1 Y21.7
G1 X107.1
G1 F300.0 Y20.5
G1 F800.0 X112.5
G1 Y32.5
G1 X100.5
G1 Y20.5
G1 X107.1
G0 Z3.0
G0 Y42.9
G0 Z1.0
G1 F300.0 Z-1.0
G1 F800.0 X105.9
G1 Y44.1
G1 X107.1
G1 Y42.9
G1 F300.0 Y42.3
G1 F800.0 X105.3
G1 Y44.7
G1 X107.7
G1 Y42.3
G1 X107.1
G1 F300.0 Y41.1
G1 F800.0 X104.1
G1 Y45.9
G1 X108.9
G1 Y41.1
G1 X107.1
G1 F300.0 Y39.9
G1 F800.0 X102.9
G1 Y47.1
G1 X110.1
G1 Y39.9
G1 X107.1
G1 F300.0 Y38.7
G1 F800.0 X101.7
G1 Y48.3
G1 X111.3
G1 Y38.7
G1 X107.1
G1 F300.0 Y37.5
G1 F800.0 X112.5
G1 Y49.5
G1 X100.5
G1 Y37.5
G1 X107.1
G0 Z3.0
G0 Y42.9
G0 Z0.0
G1 F300.0 Z-1.1
G1 F800.0 X105.9
G1 Y44.1
G1 X107.1
G1 Y42.9
G1 F300.0 Y42.3
G1 F800.0 X105.3
G1 Y44.7
G1 X107.7
G1 Y42.3
G1 X107.1
G1 F300.0 Y41.1
G1 F800.0 X104.1
G1 Y45.9
G1 X108.9
G1 Y41.1
G1 X107.1
G1 F300.0 Y39.9
G1 F800.0 X102.9
G1 Y47.1
G1 X110.1
G1 Y39.9
G1 X107.1
G1 F300.0 Y38.7
G1 F800.0 X101.7
G1 Y48.3
G1 X111.3
G1 Y38.7
G1 X107.1
G1 F300.0 Y37.5
G1 F800.0 X112.5
G1 Y49.5
G1 X100.5
G1 Y37.5
G1 X107.1
G0 Z3.0
G0 X122.9 Y42.9
G0 Z1.0
G1 F300.0 Z-1.0
G1 F800.0 Y44.1
G1 X124.1
G1 Y42.9
G1 X122.9
G1 F300.0 X122.3
G1 F800.0 Y44.7
G1 X124.7
G1 Y42.3
G1 X122.3
G1 Y42.9
G1 F300.0 X121.1
G1 F800.0 Y45.9
G1 X125.9
G1 Y41.1
G1 X121.1
G1 Y42.9
G1 F300.0 X119.9
G1 F800.0 Y47.1
G1 X127.1
G1 Y39.9
G1 X119.9
G1 Y42.9
G1 F300.0 X118.7
G1 F800.0 Y48.3
G1 X128.3
G1 Y38.7
G1 X118.7
G1 Y42.9
G1 F300.0 X117.5
G1 F800.0 Y37.5
G1 X129.5
G1 Y49.5
G1 X117.5
G1 Y42.9
G0 Z3.0
G0 X122.9
G0 Z0.0
G1 F300.0 Z-1.1
G1 F800.0 Y44.1
G1 X124.1
G1 Y42.9
G1 X122.9
G1 F300.0 X122.3
G1 F800.0 Y44.7
G1 X124.7
G1 Y42.3
G1 X122.3
G1 Y42.9
G1 F300.0 X121.1
G1 F800.0 Y45.9
G1 X125.9
G1 Y41.1
G1 X121.1
G1 Y42.9
G1 F300.0 X119.9
G1 F800.0 Y47.1
G1 X127.1
G1 Y39.9
G1 X119.9
G1 Y42.9
G1 F300.0 X118.7
G1 F800.0 Y48.3
G1 X128.3
G1 Y38.7
G1 X118.7
G1 Y42.9
G1 F300.0 X117.5
G1 F800.0 Y37.5
G1 X129.5
G1 Y49.5
G1 X117.5
G1 Y42.9
G0 Z3.0
G0 X122.9 Y59.9
G0 Z1.0
G1 F300.0 Z-1.0
G1 F800.0 Y61.1
G1 X124.1
G1 Y59.9
G1 X122.9
G1 F300.0 Y59.3
G1 F800.0 X122.3
G1 Y61.7
G1 X124.7
G1 Y59.3
G1 X122.9
G1 F300.0 Y58.1
G1 F800.0 X121.1
G1 Y62.9
G1 X125.9
G1 Y58.1
G1 X122.9
G1 F300.0 Y56.9
G1 F800.0 X119.9
G1 Y64.1
G1 X127.1
G1 Y56.9
G1 X122.9
G1 F300.0 Y55.7
G1 F800.0 X118.7
G1 Y65.3
G1 X128.3
G1 Y55.7
G1 X122.9
G1 F300.0 Y54.5
G1 F800.0 X129.5
G1 Y66.5
G1 X117.5
G1 Y54.5
G1 X122.9
G0 Z3.0
G0 Y59.9
G0 Z0.0
G1 F300.0 Z-1.1
G1 F800.0 Y61.1
G1 X124.1
G1 Y59.9
G1 X122.9
G1 F300.0 Y59.3
G1 F800.0 X122.3
G1 Y61.7
G1 X124.7
G1 Y59.3
G1 X122.9
G1 F300.0 Y58.1
G1 F800.0 X121.1
G1 Y62.9
G1 X125.9
G1 Y58.1
G1 X122.9
G1 F300.0 Y56.9
G1 F800.0 X119.9
G1 Y64.1
G1 X127.1
G1 Y56.9
G1 X122.9
G1 F300.0 Y55.7
G1 F800.0 X118.7
G1 Y65.3
G1 X128.3
G1 Y55.7
G1 X122.9
G1 F300.0 Y54.5
G1 F800.0 X129.5
G1 Y66.5
G1 X117.5
G1 Y54.5
G1 X122.9
G0 Z3.0
G0 Y76.9
G0 Z1.0
G1 F300.0 Z-1.0
G1 F800.0 Y78.1
G1 X124.1
( gcode truncated )
( please support CamBam development by registering )
( www.cambam.info/shop )
( Löcher )
S1000
( Senkungen )
S1000
( AutolevelKabel )
S1000
( Cut )
S1000
G0 Z3.0
M5
M30
