( Made using CamBam - http://www.cambam.co.uk )
( PnPHolder 1/1/2016 2:08:48 PM )
( T3 : 3.0 )
( T10 : 0.0 )
G21 G90 G64 G40
G0 Z3.0
( T3 : 3.0 )
T3 M6
( Löcher )
G17
M3 S1000
G0 X-115.89 Y114.0
G1 F300.0 Z-0.5
G2 F800.0 X-116.055 Y113.9047 I-0.11 J0.0
G2 Y114.0953 I0.055 J0.0953
G2 X-115.89 Y114.0 I0.055 J-0.0953
G1 F300.0 Z-1.0
G2 F800.0 X-116.055 Y113.9047 I-0.11 J0.0
G2 Y114.0953 I0.055 J0.0953
G2 X-115.89 Y114.0 I0.055 J-0.0953
G1 F300.0 Z-1.5
G2 F800.0 X-116.055 Y113.9047 I-0.11 J0.0
G2 Y114.0953 I0.055 J0.0953
G2 X-115.89 Y114.0 I0.055 J-0.0953
G1 F300.0 Z-2.0
G2 F800.0 X-116.055 Y113.9047 I-0.11 J0.0
G2 Y114.0953 I0.055 J0.0953
G2 X-115.89 Y114.0 I0.055 J-0.0953
G1 F300.0 Z-2.5
G2 F800.0 X-116.055 Y113.9047 I-0.11 J0.0
G2 Y114.0953 I0.055 J0.0953
G2 X-115.89 Y114.0 I0.055 J-0.0953
G1 F300.0 Z-3.0
G2 F800.0 X-116.055 Y113.9047 I-0.11 J0.0
G2 Y114.0953 I0.055 J0.0953
G2 X-115.89 Y114.0 I0.055 J-0.0953
G1 F300.0 Z-3.5
G2 F800.0 X-116.055 Y113.9047 I-0.11 J0.0
G2 Y114.0953 I0.055 J0.0953
G2 X-115.89 Y114.0 I0.055 J-0.0953
G1 F300.0 Z-4.0
G2 F800.0 X-116.055 Y113.9047 I-0.11 J0.0
G2 Y114.0953 I0.055 J0.0953
G2 X-115.89 Y114.0 I0.055 J-0.0953
G1 F300.0 Z-4.5
G2 F800.0 X-116.055 Y113.9047 I-0.11 J0.0
G2 Y114.0953 I0.055 J0.0953
G2 X-115.89 Y114.0 I0.055 J-0.0953
G1 F300.0 Z-5.0
G2 F800.0 X-116.055 Y113.9047 I-0.11 J0.0
G2 Y114.0953 I0.055 J0.0953
G2 X-115.89 Y114.0 I0.055 J-0.0953
G1 F300.0 Z-5.5
G2 F800.0 X-116.055 Y113.9047 I-0.11 J0.0
G2 Y114.0953 I0.055 J0.0953
G2 X-115.89 Y114.0 I0.055 J-0.0953
G1 F300.0 Z-6.0
G2 F800.0 X-116.055 Y113.9047 I-0.11 J0.0
G2 Y114.0953 I0.055 J0.0953
G2 X-115.89 Y114.0 I0.055 J-0.0953
G1 F300.0 Z-6.5
G2 F800.0 X-116.055 Y113.9047 I-0.11 J0.0
G2 Y114.0953 I0.055 J0.0953
G2 X-115.89 Y114.0 I0.055 J-0.0953
G1 F300.0 Z-7.0
G2 F800.0 X-116.055 Y113.9047 I-0.11 J0.0
G2 Y114.0953 I0.055 J0.0953
G2 X-115.89 Y114.0 I0.055 J-0.0953
G1 F300.0 Z-7.5
G2 F800.0 X-116.055 Y113.9047 I-0.11 J0.0
G2 Y114.0953 I0.055 J0.0953
G2 X-115.89 Y114.0 I0.055 J-0.0953
G1 F300.0 Z-8.0
G2 F800.0 X-116.055 Y113.9047 I-0.11 J0.0
G2 Y114.0953 I0.055 J0.0953
G2 X-115.89 Y114.0 I0.055 J-0.0953
G1 F300.0 Z-8.5
G2 F800.0 X-116.055 Y113.9047 I-0.11 J0.0
G2 Y114.0953 I0.055 J0.0953
G2 X-115.89 Y114.0 I0.055 J-0.0953
G1 F300.0 Z-9.0
G2 F800.0 X-116.055 Y113.9047 I-0.11 J0.0
G2 Y114.0953 I0.055 J0.0953
G2 X-115.89 Y114.0 I0.055 J-0.0953
G1 F300.0 Z-9.5
G2 F800.0 X-116.055 Y113.9047 I-0.11 J0.0
G2 Y114.0953 I0.055 J0.0953
G2 X-115.89 Y114.0 I0.055 J-0.0953
G1 F300.0 Z-10.0
G2 F800.0 X-116.055 Y113.9047 I-0.11 J0.0
G2 Y114.0953 I0.055 J0.0953
G2 X-115.89 Y114.0 I0.055 J-0.0953
G1 F300.0 Z-10.25
G2 F800.0 X-116.055 Y113.9047 I-0.11 J0.0
G2 Y114.0953 I0.055 J0.0953
G2 X-115.89 Y114.0 I0.055 J-0.0953
G0 Z3.0
G0 X-115.9999 Y4.11
G1 F300.0 Z-0.5
G2 F800.0 X-115.89 Y4.0 I-0.0001 J-0.11
G2 X-116.055 Y3.9047 I-0.11 J0.0
G2 Y4.0953 I0.055 J0.0953
G2 X-115.9999 Y4.11 I0.055 J-0.0953
G1 F300.0 Z-1.0
G2 F800.0 X-115.89 Y4.0 I-0.0001 J-0.11
G2 X-116.055 Y3.9047 I-0.11 J0.0
G2 Y4.0953 I0.055 J0.0953
G2 X-115.9999 Y4.11 I0.055 J-0.0953
G1 F300.0 Z-1.5
G2 F800.0 X-115.89 Y4.0 I-0.0001 J-0.11
G2 X-116.055 Y3.9047 I-0.11 J0.0
G2 Y4.0953 I0.055 J0.0953
G2 X-115.9999 Y4.11 I0.055 J-0.0953
G1 F300.0 Z-2.0
G2 F800.0 X-115.89 Y4.0 I-0.0001 J-0.11
G2 X-116.055 Y3.9047 I-0.11 J0.0
G2 Y4.0953 I0.055 J0.0953
G2 X-115.9999 Y4.11 I0.055 J-0.0953
G1 F300.0 Z-2.5
G2 F800.0 X-115.89 Y4.0 I-0.0001 J-0.11
G2 X-116.055 Y3.9047 I-0.11 J0.0
G2 Y4.0953 I0.055 J0.0953
G2 X-115.9999 Y4.11 I0.055 J-0.0953
G1 F300.0 Z-3.0
G2 F800.0 X-115.89 Y4.0 I-0.0001 J-0.11
G2 X-116.055 Y3.9047 I-0.11 J0.0
G2 Y4.0953 I0.055 J0.0953
G2 X-115.9999 Y4.11 I0.055 J-0.0953
G1 F300.0 Z-3.5
G2 F800.0 X-115.89 Y4.0 I-0.0001 J-0.11
G2 X-116.055 Y3.9047 I-0.11 J0.0
G2 Y4.0953 I0.055 J0.0953
G2 X-115.9999 Y4.11 I0.055 J-0.0953
G1 F300.0 Z-4.0
G2 F800.0 X-115.89 Y4.0 I-0.0001 J-0.11
G2 X-116.055 Y3.9047 I-0.11 J0.0
G2 Y4.0953 I0.055 J0.0953
G2 X-115.9999 Y4.11 I0.055 J-0.0953
G1 F300.0 Z-4.5
G2 F800.0 X-115.89 Y4.0 I-0.0001 J-0.11
G2 X-116.055 Y3.9047 I-0.11 J0.0
G2 Y4.0953 I0.055 J0.0953
G2 X-115.9999 Y4.11 I0.055 J-0.0953
G1 F300.0 Z-5.0
G2 F800.0 X-115.89 Y4.0 I-0.0001 J-0.11
G2 X-116.055 Y3.9047 I-0.11 J0.0
G2 Y4.0953 I0.055 J0.0953
G2 X-115.9999 Y4.11 I0.055 J-0.0953
G1 F300.0 Z-5.5
G2 F800.0 X-115.89 Y4.0 I-0.0001 J-0.11
G2 X-116.055 Y3.9047 I-0.11 J0.0
G2 Y4.0953 I0.055 J0.0953
G2 X-115.9999 Y4.11 I0.055 J-0.0953
G1 F300.0 Z-6.0
G2 F800.0 X-115.89 Y4.0 I-0.0001 J-0.11
G2 X-116.055 Y3.9047 I-0.11 J0.0
G2 Y4.0953 I0.055 J0.0953
G2 X-115.9999 Y4.11 I0.055 J-0.0953
G1 F300.0 Z-6.5
G2 F800.0 X-115.89 Y4.0 I-0.0001 J-0.11
G2 X-116.055 Y3.9047 I-0.11 J0.0
G2 Y4.0953 I0.055 J0.0953
G2 X-115.9999 Y4.11 I0.055 J-0.0953
G1 F300.0 Z-7.0
G2 F800.0 X-115.89 Y4.0 I-0.0001 J-0.11
G2 X-116.055 Y3.9047 I-0.11 J0.0
G2 Y4.0953 I0.055 J0.0953
G2 X-115.9999 Y4.11 I0.055 J-0.0953
G1 F300.0 Z-7.5
G2 F800.0 X-115.89 Y4.0 I-0.0001 J-0.11
G2 X-116.055 Y3.9047 I-0.11 J0.0
G2 Y4.0953 I0.055 J0.0953
G2 X-115.9999 Y4.11 I0.055 J-0.0953
G1 F300.0 Z-8.0
G2 F800.0 X-115.89 Y4.0 I-0.0001 J-0.11
G2 X-116.055 Y3.9047 I-0.11 J0.0
G2 Y4.0953 I0.055 J0.0953
G2 X-115.9999 Y4.11 I0.055 J-0.0953
G1 F300.0 Z-8.5
G2 F800.0 X-115.89 Y4.0 I-0.0001 J-0.11
G2 X-116.055 Y3.9047 I-0.11 J0.0
G2 Y4.0953 I0.055 J0.0953
G2 X-115.9999 Y4.11 I0.055 J-0.0953
G1 F300.0 Z-9.0
G2 F800.0 X-115.89 Y4.0 I-0.0001 J-0.11
G2 X-116.055 Y3.9047 I-0.11 J0.0
G2 Y4.0953 I0.055 J0.0953
G2 X-115.9999 Y4.11 I0.055 J-0.0953
G1 F300.0 Z-9.5
G2 F800.0 X-115.89 Y4.0 I-0.0001 J-0.11
G2 X-116.055 Y3.9047 I-0.11 J0.0
G2 Y4.0953 I0.055 J0.0953
G2 X-115.9999 Y4.11 I0.055 J-0.0953
G1 F300.0 Z-10.0
G2 F800.0 X-115.89 Y4.0 I-0.0001 J-0.11
G2 X-116.055 Y3.9047 I-0.11 J0.0
G2 Y4.0953 I0.055 J0.0953
G2 X-115.9999 Y4.11 I0.055 J-0.0953
G1 F300.0 Z-10.25
G2 F800.0 X-115.89 Y4.0 I-0.0001 J-0.11
G2 X-116.055 Y3.9047 I-0.11 J0.0
G2 Y4.0953 I0.055 J0.0953
G2 X-115.9999 Y4.11 I0.055 J-0.0953
G0 Z3.0
G0 X123.8901 Y-5.9954
G1 F300.0 Z-0.5
G2 F800.0 X123.945 Y-5.9047 I0.1099 J-0.0046
G2 X124.11 Y-6.0 I0.055 J-0.0953
G2 X123.945 Y-6.0953 I-0.11 J0.0
G2 X123.8901 Y-5.9954 I0.055 J0.0953
G1 F300.0 Z-1.0
G2 F800.0 X123.945 Y-5.9047 I0.1099 J-0.0046
G2 X124.11 Y-6.0 I0.055 J-0.0953
G2 X123.945 Y-6.0953 I-0.11 J0.0
G2 X123.8901 Y-5.9954 I0.055 J0.0953
G1 F300.0 Z-1.5
G2 F800.0 X123.945 Y-5.9047 I0.1099 J-0.0046
G2 X124.11 Y-6.0 I0.055 J-0.0953
G2 X123.945 Y-6.0953 I-0.11 J0.0
G2 X123.8901 Y-5.9954 I0.055 J0.0953
G1 F300.0 Z-2.0
G2 F800.0 X123.945 Y-5.9047 I0.1099 J-0.0046
G2 X124.11 Y-6.0 I0.055 J-0.0953
G2 X123.945 Y-6.0953 I-0.11 J0.0
G2 X123.8901 Y-5.9954 I0.055 J0.0953
G1 F300.0 Z-2.5
G2 F800.0 X123.945 Y-5.9047 I0.1099 J-0.0046
G2 X124.11 Y-6.0 I0.055 J-0.0953
G2 X123.945 Y-6.0953 I-0.11 J0.0
G2 X123.8901 Y-5.9954 I0.055 J0.0953
G1 F300.0 Z-3.0
G2 F800.0 X123.945 Y-5.9047 I0.1099 J-0.0046
G2 X124.11 Y-6.0 I0.055 J-0.0953
G2 X123.945 Y-6.0953 I-0.11 J0.0
G2 X123.8901 Y-5.9954 I0.055 J0.0953
G1 F300.0 Z-3.5
G2 F800.0 X123.945 Y-5.9047 I0.1099 J-0.0046
G2 X124.11 Y-6.0 I0.055 J-0.0953
G2 X123.945 Y-6.0953 I-0.11 J0.0
G2 X123.8901 Y-5.9954 I0.055 J0.0953
G1 F300.0 Z-4.0
G2 F800.0 X123.945 Y-5.9047 I0.1099 J-0.0046
G2 X124.11 Y-6.0 I0.055 J-0.0953
G2 X123.945 Y-6.0953 I-0.11 J0.0
G2 X123.8901 Y-5.9954 I0.055 J0.0953
G1 F300.0 Z-4.5
G2 F800.0 X123.945 Y-5.9047 I0.1099 J-0.0046
G2 X124.11 Y-6.0 I0.055 J-0.0953
G2 X123.945 Y-6.0953 I-0.11 J0.0
G2 X123.8901 Y-5.9954 I0.055 J0.0953
G1 F300.0 Z-5.0
G2 F800.0 X123.945 Y-5.9047 I0.1099 J-0.0046
G2 X124.11 Y-6.0 I0.055 J-0.0953
G2 X123.945 Y-6.0953 I-0.11 J0.0
G2 X123.8901 Y-5.9954 I0.055 J0.0953
G1 F300.0 Z-5.5
G2 F800.0 X123.945 Y-5.9047 I0.1099 J-0.0046
G2 X124.11 Y-6.0 I0.055 J-0.0953
G2 X123.945 Y-6.0953 I-0.11 J0.0
G2 X123.8901 Y-5.9954 I0.055 J0.0953
G1 F300.0 Z-6.0
G2 F800.0 X123.945 Y-5.9047 I0.1099 J-0.0046
G2 X124.11 Y-6.0 I0.055 J-0.0953
G2 X123.945 Y-6.0953 I-0.11 J0.0
G2 X123.8901 Y-5.9954 I0.055 J0.0953
G1 F300.0 Z-6.5
G2 F800.0 X123.945 Y-5.9047 I0.1099 J-0.0046
G2 X124.11 Y-6.0 I0.055 J-0.0953
G2 X123.945 Y-6.0953 I-0.11 J0.0
G2 X123.8901 Y-5.9954 I0.055 J0.0953
G1 F300.0 Z-7.0
G2 F800.0 X123.945 Y-5.9047 I0.1099 J-0.0046
G2 X124.11 Y-6.0 I0.055 J-0.0953
G2 X123.945 Y-6.0953 I-0.11 J0.0
G2 X123.8901 Y-5.9954 I0.055 J0.0953
G1 F300.0 Z-7.5
G2 F800.0 X123.945 Y-5.9047 I0.1099 J-0.0046
G2 X124.11 Y-6.0 I0.055 J-0.0953
G2 X123.945 Y-6.0953 I-0.11 J0.0
G2 X123.8901 Y-5.9954 I0.055 J0.0953
G1 F300.0 Z-8.0
G2 F800.0 X123.945 Y-5.9047 I0.1099 J-0.0046
G2 X124.11 Y-6.0 I0.055 J-0.0953
G2 X123.945 Y-6.0953 I-0.11 J0.0
G2 X123.8901 Y-5.9954 I0.055 J0.0953
G1 F300.0 Z-8.5
G2 F800.0 X123.945 Y-5.9047 I0.1099 J-0.0046
G2 X124.11 Y-6.0 I0.055 J-0.0953
G2 X123.945 Y-6.0953 I-0.11 J0.0
G2 X123.8901 Y-5.9954 I0.055 J0.0953
G1 F300.0 Z-9.0
G2 F800.0 X123.945 Y-5.9047 I0.1099 J-0.0046
G2 X124.11 Y-6.0 I0.055 J-0.0953
G2 X123.945 Y-6.0953 I-0.11 J0.0
G2 X123.8901 Y-5.9954 I0.055 J0.0953
G1 F300.0 Z-9.5
G2 F800.0 X123.945 Y-5.9047 I0.1099 J-0.0046
G2 X124.11 Y-6.0 I0.055 J-0.0953
G2 X123.945 Y-6.0953 I-0.11 J0.0
G2 X123.8901 Y-5.9954 I0.055 J0.0953
G1 F300.0 Z-10.0
G2 F800.0 X123.945 Y-5.9047 I0.1099 J-0.0046
G2 X124.11 Y-6.0 I0.055 J-0.0953
G2 X123.945 Y-6.0953 I-0.11 J0.0
G2 X123.8901 Y-5.9954 I0.055 J0.0953
G1 F300.0 Z-10.25
G2 F800.0 X123.945 Y-5.9047 I0.1099 J-0.0046
G2 X124.11 Y-6.0 I0.055 J-0.0953
G2 X123.945 Y-6.0953 I-0.11 J0.0
G2 X123.8901 Y-5.9954 I0.055 J0.0953
G0 Z3.0
G0 X123.9999 Y113.89
G1 F300.0 Z-0.5
G2 F800.0 X123.945 Y113.9047 I0.0001 J0.11
G2 Y114.0953 I0.055 J0.0953
G2 X124.11 Y114.0 I0.055 J-0.0953
G2 X123.9999 Y113.89 I-0.11 J0.0
G1 F300.0 Z-1.0
G2 F800.0 X123.945 Y113.9047 I0.0001 J0.11
G2 Y114.0953 I0.055 J0.0953
G2 X124.11 Y114.0 I0.055 J-0.0953
G2 X123.9999 Y113.89 I-0.11 J0.0
G1 F300.0 Z-1.5
G2 F800.0 X123.945 Y113.9047 I0.0001 J0.11
G2 Y114.0953 I0.055 J0.0953
G2 X124.11 Y114.0 I0.055 J-0.0953
G2 X123.9999 Y113.89 I-0.11 J0.0
G1 F300.0 Z-2.0
G2 F800.0 X123.945 Y113.9047 I0.0001 J0.11
G2 Y114.0953 I0.055 J0.0953
G2 X124.11 Y114.0 I0.055 J-0.0953
G2 X123.9999 Y113.89 I-0.11 J0.0
G1 F300.0 Z-2.5
G2 F800.0 X123.945 Y113.9047 I0.0001 J0.11
G2 Y114.0953 I0.055 J0.0953
G2 X124.11 Y114.0 I0.055 J-0.0953
G2 X123.9999 Y113.89 I-0.11 J0.0
G1 F300.0 Z-3.0
G2 F800.0 X123.945 Y113.9047 I0.0001 J0.11
G2 Y114.0953 I0.055 J0.0953
G2 X124.11 Y114.0 I0.055 J-0.0953
G2 X123.9999 Y113.89 I-0.11 J0.0
G1 F300.0 Z-3.5
G2 F800.0 X123.945 Y113.9047 I0.0001 J0.11
G2 Y114.0953 I0.055 J0.0953
G2 X124.11 Y114.0 I0.055 J-0.0953
G2 X123.9999 Y113.89 I-0.11 J0.0
G1 F300.0 Z-4.0
G2 F800.0 X123.945 Y113.9047 I0.0001 J0.11
G2 Y114.0953 I0.055 J0.0953
G2 X124.11 Y114.0 I0.055 J-0.0953
G2 X123.9999 Y113.89 I-0.11 J0.0
G1 F300.0 Z-4.5
G2 F800.0 X123.945 Y113.9047 I0.0001 J0.11
G2 Y114.0953 I0.055 J0.0953
G2 X124.11 Y114.0 I0.055 J-0.0953
G2 X123.9999 Y113.89 I-0.11 J0.0
G1 F300.0 Z-5.0
G2 F800.0 X123.945 Y113.9047 I0.0001 J0.11
G2 Y114.0953 I0.055 J0.0953
G2 X124.11 Y114.0 I0.055 J-0.0953
G2 X123.9999 Y113.89 I-0.11 J0.0
G1 F300.0 Z-5.5
G2 F800.0 X123.945 Y113.9047 I0.0001 J0.11
G2 Y114.0953 I0.055 J0.0953
G2 X124.11 Y114.0 I0.055 J-0.0953
G2 X123.9999 Y113.89 I-0.11 J0.0
G1 F300.0 Z-6.0
G2 F800.0 X123.945 Y113.9047 I0.0001 J0.11
G2 Y114.0953 I0.055 J0.0953
G2 X124.11 Y114.0 I0.055 J-0.0953
G2 X123.9999 Y113.89 I-0.11 J0.0
G1 F300.0 Z-6.5
G2 F800.0 X123.945 Y113.9047 I0.0001 J0.11
G2 Y114.0953 I0.055 J0.0953
G2 X124.11 Y114.0 I0.055 J-0.0953
G2 X123.9999 Y113.89 I-0.11 J0.0
G1 F300.0 Z-7.0
G2 F800.0 X123.945 Y113.9047 I0.0001 J0.11
G2 Y114.0953 I0.055 J0.0953
G2 X124.11 Y114.0 I0.055 J-0.0953
G2 X123.9999 Y113.89 I-0.11 J0.0
G1 F300.0 Z-7.5
G2 F800.0 X123.945 Y113.9047 I0.0001 J0.11
G2 Y114.0953 I0.055 J0.0953
G2 X124.11 Y114.0 I0.055 J-0.0953
G2 X123.9999 Y113.89 I-0.11 J0.0
G1 F300.0 Z-8.0
G2 F800.0 X123.945 Y113.9047 I0.0001 J0.11
G2 Y114.0953 I0.055 J0.0953
G2 X124.11 Y114.0 I0.055 J-0.0953
G2 X123.9999 Y113.89 I-0.11 J0.0
G1 F300.0 Z-8.5
G2 F800.0 X123.945 Y113.9047 I0.0001 J0.11
G2 Y114.0953 I0.055 J0.0953
G2 X124.11 Y114.0 I0.055 J-0.0953
G2 X123.9999 Y113.89 I-0.11 J0.0
G1 F300.0 Z-9.0
G2 F800.0 X123.945 Y113.9047 I0.0001 J0.11
G2 Y114.0953 I0.055 J0.0953
G2 X124.11 Y114.0 I0.055 J-0.0953
G2 X123.9999 Y113.89 I-0.11 J0.0
G1 F300.0 Z-9.5
G2 F800.0 X123.945 Y113.9047 I0.0001 J0.11
G2 Y114.0953 I0.055 J0.0953
G2 X124.11 Y114.0 I0.055 J-0.0953
G2 X123.9999 Y113.89 I-0.11 J0.0
G1 F300.0 Z-10.0
G2 F800.0 X123.945 Y113.9047 I0.0001 J0.11
G2 Y114.0953 I0.055 J0.0953
G2 X124.11 Y114.0 I0.055 J-0.0953
G2 X123.9999 Y113.89 I-0.11 J0.0
G1 F300.0 Z-10.25
G2 F800.0 X123.945 Y113.9047 I0.0001 J0.11
G2 Y114.0953 I0.055 J0.0953
G2 X124.11 Y114.0 I0.055 J-0.0953
G2 X123.9999 Y113.89 I-0.11 J0.0
( PCBScrews )
S1000
G0 Z3.0
G0 X60.0 Y83.5
G1 F300.0 Z-1.0
G2 F800.0 X58.5 Y82.634 I-1.0 J0.0
G2 Y84.366 I0.5 J0.866
G2 X60.0 Y83.5 I0.5 J-0.866
G1 F300.0 Z-2.0
G2 F800.0 X58.5 Y82.634 I-1.0 J0.0
G2 Y84.366 I0.5 J0.866
G2 X60.0 Y83.5 I0.5 J-0.866
G1 F300.0 Z-3.0
G2 F800.0 X58.5 Y82.634 I-1.0 J0.0
G2 Y84.366 I0.5 J0.866
G2 X60.0 Y83.5 I0.5 J-0.866
G1 F300.0 Z-4.0
G2 F800.0 X58.5 Y82.634 I-1.0 J0.0
G2 Y84.366 I0.5 J0.866
G2 X60.0 Y83.5 I0.5 J-0.866
G1 F300.0 Z-5.0
G2 F800.0 X58.5 Y82.634 I-1.0 J0.0
G2 Y84.366 I0.5 J0.866
G2 X60.0 Y83.5 I0.5 J-0.866
G1 F300.0 Z-6.0
G2 F800.0 X58.5 Y82.634 I-1.0 J0.0
G2 Y84.366 I0.5 J0.866
G2 X60.0 Y83.5 I0.5 J-0.866
G1 F300.0 Z-7.0
G2 F800.0 X58.5 Y82.634 I-1.0 J0.0
G2 Y84.366 I0.5 J0.866
G2 X60.0 Y83.5 I0.5 J-0.866
G1 F300.0 Z-8.0
G2 F800.0 X58.5 Y82.634 I-1.0 J0.0
G2 Y84.366 I0.5 J0.866
G2 X60.0 Y83.5 I0.5 J-0.866
G1 F300.0 Z-9.0
G2 F800.0 X58.5 Y82.634 I-1.0 J0.0
G2 Y84.366 I0.5 J0.866
G2 X60.0 Y83.5 I0.5 J-0.866
G1 F300.0 Z-10.0
G2 F800.0 X58.5 Y82.634 I-1.0 J0.0
G2 Y84.366 I0.5 J0.866
G2 X60.0 Y83.5 I0.5 J-0.866
G1 F300.0 Z-10.25
G2 F800.0 X58.5 Y82.634 I-1.0 J0.0
G2 Y84.366 I0.5 J0.866
G2 X60.0 Y83.5 I0.5 J-0.866
G0 Z3.0
G0 X-1.6792 Y40.5713
G1 F300.0 Z-1.0
G2 F800.0 X-1.5 Y40.0 I-0.8208 J-0.5713
G2 X-3.0 Y39.134 I-1.0 J0.0
G2 Y40.866 I0.5 J0.866
G2 X-1.6792 Y40.5713 I0.5 J-0.866
G1 F300.0 Z-2.0
G2 F800.0 X-1.5 Y40.0 I-0.8208 J-0.5713
G2 X-3.0 Y39.134 I-1.0 J0.0
G2 Y40.866 I0.5 J0.866
G2 X-1.6792 Y40.5713 I0.5 J-0.866
G1 F300.0 Z-3.0
G2 F800.0 X-1.5 Y40.0 I-0.8208 J-0.5713
G2 X-3.0 Y39.134 I-1.0 J0.0
G2 Y40.866 I0.5 J0.866
G2 X-1.6792 Y40.5713 I0.5 J-0.866
G1 F300.0 Z-4.0
G2 F800.0 X-1.5 Y40.0 I-0.8208 J-0.5713
G2 X-3.0 Y39.134 I-1.0 J0.0
G2 Y40.866 I0.5 J0.866
G2 X-1.6792 Y40.5713 I0.5 J-0.866
G1 F300.0 Z-5.0
G2 F800.0 X-1.5 Y40.0 I-0.8208 J-0.5713
G2 X-3.0 Y39.134 I-1.0 J0.0
G2 Y40.866 I0.5 J0.866
G2 X-1.6792 Y40.5713 I0.5 J-0.866
G1 F300.0 Z-6.0
G2 F800.0 X-1.5 Y40.0 I-0.8208 J-0.5713
G2 X-3.0 Y39.134 I-1.0 J0.0
G2 Y40.866 I0.5 J0.866
G2 X-1.6792 Y40.5713 I0.5 J-0.866
G1 F300.0 Z-7.0
G2 F800.0 X-1.5 Y40.0 I-0.8208 J-0.5713
G2 X-3.0 Y39.134 I-1.0 J0.0
G2 Y40.866 I0.5 J0.866
G2 X-1.6792 Y40.5713 I0.5 J-0.866
G1 F300.0 Z-8.0
G2 F800.0 X-1.5 Y40.0 I-0.8208 J-0.5713
G2 X-3.0 Y39.134 I-1.0 J0.0
G2 Y40.866 I0.5 J0.866
G2 X-1.6792 Y40.5713 I0.5 J-0.866
G1 F300.0 Z-9.0
G2 F800.0 X-1.5 Y40.0 I-0.8208 J-0.5713
G2 X-3.0 Y39.134 I-1.0 J0.0
G2 Y40.866 I0.5 J0.866
G2 X-1.6792 Y40.5713 I0.5 J-0.866
G1 F300.0 Z-10.0
G2 F800.0 X-1.5 Y40.0 I-0.8208 J-0.5713
G2 X-3.0 Y39.134 I-1.0 J0.0
G2 Y40.866 I0.5 J0.866
G2 X-1.6792 Y40.5713 I0.5 J-0.866
G1 F300.0 Z-10.25
G2 F800.0 X-1.5 Y40.0 I-0.8208 J-0.5713
G2 X-3.0 Y39.134 I-1.0 J0.0
G2 Y40.866 I0.5 J0.866
G2 X-1.6792 Y40.5713 I0.5 J-0.866
G0 Z3.0
G0 X58.1845 Y-1.9212
G1 F300.0 Z-1.0
G2 F800.0 X58.5 Y-1.634 I0.8155 J-0.5788
G2 X60.0 Y-2.5 I0.5 J-0.866
G2 X58.5 Y-3.366 I-1.0 J0.0
G2 X58.1845 Y-1.9212 I0.5 J0.866
G1 F300.0 Z-2.0
G2 F800.0 X58.5 Y-1.634 I0.8155 J-0.5788
G2 X60.0 Y-2.5 I0.5 J-0.866
G2 X58.5 Y-3.366 I-1.0 J0.0
G2 X58.1845 Y-1.9212 I0.5 J0.866
G1 F300.0 Z-3.0
G2 F800.0 X58.5 Y-1.634 I0.8155 J-0.5788
G2 X60.0 Y-2.5 I0.5 J-0.866
G2 X58.5 Y-3.366 I-1.0 J0.0
G2 X58.1845 Y-1.9212 I0.5 J0.866
G1 F300.0 Z-4.0
G2 F800.0 X58.5 Y-1.634 I0.8155 J-0.5788
G2 X60.0 Y-2.5 I0.5 J-0.866
G2 X58.5 Y-3.366 I-1.0 J0.0
G2 X58.1845 Y-1.9212 I0.5 J0.866
G1 F300.0 Z-5.0
G2 F800.0 X58.5 Y-1.634 I0.8155 J-0.5788
G2 X60.0 Y-2.5 I0.5 J-0.866
G2 X58.5 Y-3.366 I-1.0 J0.0
G2 X58.1845 Y-1.9212 I0.5 J0.866
G1 F300.0 Z-6.0
G2 F800.0 X58.5 Y-1.634 I0.8155 J-0.5788
G2 X60.0 Y-2.5 I0.5 J-0.866
G2 X58.5 Y-3.366 I-1.0 J0.0
G2 X58.1845 Y-1.9212 I0.5 J0.866
G1 F300.0 Z-7.0
G2 F800.0 X58.5 Y-1.634 I0.8155 J-0.5788
G2 X60.0 Y-2.5 I0.5 J-0.866
G2 X58.5 Y-3.366 I-1.0 J0.0
G2 X58.1845 Y-1.9212 I0.5 J0.866
G1 F300.0 Z-8.0
G2 F800.0 X58.5 Y-1.634 I0.8155 J-0.5788
G2 X60.0 Y-2.5 I0.5 J-0.866
G2 X58.5 Y-3.366 I-1.0 J0.0
G2 X58.1845 Y-1.9212 I0.5 J0.866
G1 F300.0 Z-9.0
G2 F800.0 X58.5 Y-1.634 I0.8155 J-0.5788
G2 X60.0 Y-2.5 I0.5 J-0.866
G2 X58.5 Y-3.366 I-1.0 J0.0
G2 X58.1845 Y-1.9212 I0.5 J0.866
G1 F300.0 Z-10.0
G2 F800.0 X58.5 Y-1.634 I0.8155 J-0.5788
G2 X60.0 Y-2.5 I0.5 J-0.866
G2 X58.5 Y-3.366 I-1.0 J0.0
G2 X58.1845 Y-1.9212 I0.5 J0.866
G1 F300.0 Z-10.25
G2 F800.0 X58.5 Y-1.634 I0.8155 J-0.5788
G2 X60.0 Y-2.5 I0.5 J-0.866
G2 X58.5 Y-3.366 I-1.0 J0.0
G2 X58.1845 Y-1.9212 I0.5 J0.866
G0 Z3.0
G0 X122.6584 Y39.4599
G1 F300.0 Z-1.0
G2 F800.0 X123.0 Y40.866 I0.8416 J0.5401
G2 X124.5 Y40.0 I0.5 J-0.866
G2 X123.0 Y39.134 I-1.0 J0.0
G2 X122.6584 Y39.4599 I0.5 J0.866
G1 F300.0 Z-2.0
G2 F800.0 X123.0 Y40.866 I0.8416 J0.5401
G2 X124.5 Y40.0 I0.5 J-0.866
G2 X123.0 Y39.134 I-1.0 J0.0
G2 X122.6584 Y39.4599 I0.5 J0.866
G1 F300.0 Z-3.0
G2 F800.0 X123.0 Y40.866 I0.8416 J0.5401
G2 X124.5 Y40.0 I0.5 J-0.866
G2 X123.0 Y39.134 I-1.0 J0.0
G2 X122.6584 Y39.4599 I0.5 J0.866
G1 F300.0 Z-4.0
G2 F800.0 X123.0 Y40.866 I0.8416 J0.5401
G2 X124.5 Y40.0 I0.5 J-0.866
G2 X123.0 Y39.134 I-1.0 J0.0
G2 X122.6584 Y39.4599 I0.5 J0.866
G1 F300.0 Z-5.0
G2 F800.0 X123.0 Y40.866 I0.8416 J0.5401
G2 X124.5 Y40.0 I0.5 J-0.866
G2 X123.0 Y39.134 I-1.0 J0.0
G2 X122.6584 Y39.4599 I0.5 J0.866
G1 F300.0 Z-6.0
G2 F800.0 X123.0 Y40.866 I0.8416 J0.5401
G2 X124.5 Y40.0 I0.5 J-0.866
G2 X123.0 Y39.134 I-1.0 J0.0
G2 X122.6584 Y39.4599 I0.5 J0.866
G1 F300.0 Z-7.0
G2 F800.0 X123.0 Y40.866 I0.8416 J0.5401
G2 X124.5 Y40.0 I0.5 J-0.866
G2 X123.0 Y39.134 I-1.0 J0.0
G2 X122.6584 Y39.4599 I0.5 J0.866
G1 F300.0 Z-8.0
G2 F800.0 X123.0 Y40.866 I0.8416 J0.5401
G2 X124.5 Y40.0 I0.5 J-0.866
G2 X123.0 Y39.134 I-1.0 J0.0
G2 X122.6584 Y39.4599 I0.5 J0.866
G1 F300.0 Z-9.0
G2 F800.0 X123.0 Y40.866 I0.8416 J0.5401
G2 X124.5 Y40.0 I0.5 J-0.866
G2 X123.0 Y39.134 I-1.0 J0.0
G2 X122.6584 Y39.4599 I0.5 J0.866
G1 F300.0 Z-10.0
G2 F800.0 X123.0 Y40.866 I0.8416 J0.5401
G2 X124.5 Y40.0 I0.5 J-0.866
G2 X123.0 Y39.134 I-1.0 J0.0
G2 X122.6584 Y39.4599 I0.5 J0.866
G1 F300.0 Z-10.25
G2 F800.0 X123.0 Y40.866 I0.8416 J0.5401
G2 X124.5 Y40.0 I0.5 J-0.866
G2 X123.0 Y39.134 I-1.0 J0.0
G2 X122.6584 Y39.4599 I0.5 J0.866
( PlaceFree )
S1000
G0 Z3.0
G0 X-5.0212 Y108.9816
G1 F300.0 Z-1.1
G1 F800.0 Y109.9816
G1 X-4.0212
G1 Y108.9816
G1 X-5.0212
G0 Z3.0
G0 X-23.0212
G1 F300.0 Z-1.1
G1 F800.0 X-24.0212
G1 Y109.9816
G1 X-23.0212
G1 Y108.9816
G0 Z3.0
G0 X-5.0212 Y88.9816
G1 F300.0 Z-1.1
G1 F800.0 X-4.0212
G1 Y87.9816
G1 X-5.0212
G1 Y88.9816
G0 Z3.0
G0 X13.9788
G1 F300.0 Z-1.1
G1 F800.0 X14.9788
G1 Y87.9816
G1 X13.9788
G1 Y88.9816
G0 Z3.0
G0 X32.9788
G1 F300.0 Z-1.1
G1 F800.0 X33.9788
G1 Y87.9816
G1 X32.9788
G1 Y88.9816
G0 Z3.0
G0 X51.9788
G1 F300.0 Z-1.1
G1 F800.0 X52.9788
G1 Y87.9816
G1 X51.9788
G1 Y88.9816
G0 Z3.0
G0 X70.9788
G1 F300.0 Z-1.1
G1 F800.0 X71.9788
G1 Y87.9816
G1 X70.9788
G1 Y88.9816
G0 Z3.0
G0 X89.9788
G1 F300.0 Z-1.1
G1 F800.0 X90.9788
G1 Y87.9816
G1 X89.9788
G1 Y88.9816
G0 Z3.0
G0 X108.9788
G1 F300.0 Z-1.1
G1 F800.0 X109.9788
G1 Y87.9816
G1 X108.9788
G1 Y88.9816
G0 Z3.0
G0 X-23.0212 Y70.9816
G1 F300.0 Z-1.1
G1 F800.0 Y69.9816
G1 X-24.0212
G1 Y70.9816
G1 X-23.0212
G0 Z3.0
G0 Y51.9816
G1 F300.0 Z-1.1
G1 F800.0 Y50.9816
G1 X-24.0212
G1 Y51.9816
G1 X-23.0212
G0 Z3.0
G0 Y20.9816
G1 F300.0 Z-1.1
G1 F800.0 Y19.9816
G1 X-24.0212
G1 Y20.9816
G1 X-23.0212
( CalibrateBlockCorners )
S1000
G0 Z3.0
G0 X-22.5 Y7.5
G1 F300.0 Z-3.0
G1 F800.0 Y8.5
G1 X-21.5
G1 Y7.5
G1 X-22.5
G0 Z3.0
G0 Y-4.5
G1 F300.0 Z-3.0
G1 F800.0 X-21.5
G1 Y-5.5
G1 X-22.5
G1 Y-4.5
G0 Z3.0
G0 X-9.5
G1 F300.0 Z-3.0
G1 F800.0 X-8.5
G1 Y-5.5
G1 X-9.5
G1 Y-4.5
G0 Z3.0
G0 Y7.5
G1 F300.0 Z-3.0
G1 F800.0 Y8.5
G1 X-8.5
G1 Y7.5
G1 X-9.5
( CalibrateBlockPocket )
S1000
G0 Z3.0
G0 X-16.0 Y-5.5
G1 F300.0 Z-3.0
G1 F800.0 X-15.0
G1 Y-11.5
G1 X-16.0
G1 Y-5.5
G0 Z3.0
G0 X-15.5 Y1.5
G1 F300.0 Z-3.0
G1 F800.0 Y1.51
G1 X-15.49
G1 Y1.5
G1 X-15.5
G1 F300.0 X-16.7
G1 F800.0 Y2.71
G1 X-14.29
G1 Y0.3
G1 X-16.7
G1 Y1.5
G1 F300.0 X-17.9
G1 F800.0 Y3.91
G1 X-13.09
G1 Y-0.9
G1 X-17.9
G1 Y1.5
G1 F300.0 X-19.1
G1 F800.0 Y5.11
G1 X-11.89
G1 Y-2.1
G1 X-19.1
G1 Y1.5
G1 F300.0 X-20.3
G1 F800.0 Y6.31
G1 X-10.69
G1 Y-3.3
G1 X-20.3
G1 Y1.5
G1 F300.0 X-21.5
G1 F800.0 Y7.51
G1 X-9.49
G1 Y-4.5
G1 X-21.5
G1 Y1.5
( Magnet )
S1000
G0 Z3.0
G0 X-114.05 Y44.0
G1 F300.0 Z-3.1
G2 F800.0 X-115.475 Y43.1773 I-0.95 J0.0
G2 Y44.8227 I0.475 J0.8227
G2 X-114.05 Y44.0 I0.475 J-0.8227
G1 F300.0 X-112.85
G2 F800.0 X-116.075 Y42.138 I-2.15 J0.0
G2 Y45.862 I1.075 J1.862
G2 X-112.85 Y44.0 I1.075 J-1.862
G1 F300.0 X-111.65
G2 F800.0 X-116.675 Y41.0988 I-3.35 J0.0
G2 Y46.9012 I1.675 J2.9012
G2 X-111.65 Y44.0 I1.675 J-2.9012
G1 F300.0 X-110.45
G2 F800.0 X-117.275 Y40.0596 I-4.55 J0.0
G2 Y47.9404 I2.275 J3.9404
G2 X-110.45 Y44.0 I2.275 J-3.9404
G0 Z3.0
G0 X-114.9217 Y98.0532
G1 F300.0 Z-3.1
G2 F800.0 X-115.475 Y98.1773 I-0.0783 J0.9468
G2 Y99.8227 I0.475 J0.8227
G2 X-114.05 Y99.0 I0.475 J-0.8227
G2 X-114.9217 Y98.0532 I-0.95 J0.0
G1 F300.0 X-114.8227 Y96.8573
G2 F800.0 X-116.075 Y97.138 I-0.1773 J2.1427
G2 Y100.862 I1.075 J1.862
G2 X-112.85 Y99.0 I1.075 J-1.862
G2 X-114.8227 Y96.8573 I-2.15 J0.0
G1 F300.0 X-114.7238 Y95.6614
G2 F800.0 X-116.675 Y96.0988 I-0.2762 J3.3386
G2 Y101.9012 I1.675 J2.9012
G2 X-111.65 Y99.0 I1.675 J-2.9012
G2 X-114.7238 Y95.6614 I-3.35 J0.0
G1 F300.0 X-114.6249 Y94.4655
G2 F800.0 X-117.275 Y95.0596 I-0.3751 J4.5345
G2 Y102.9404 I2.275 J3.9404
G2 X-110.45 Y99.0 I2.275 J-3.9404
G2 X-114.6249 Y94.4655 I-4.55 J0.0
G0 Z3.0
G0 X-17.949 Y98.9559
G1 F300.0 Z-3.1
G2 F800.0 X-17.475 Y99.8227 I0.949 J0.0441
G2 X-16.05 Y99.0 I0.475 J-0.8227
G2 X-17.475 Y98.1773 I-0.95 J0.0
G2 X-17.949 Y98.9559 I0.475 J0.8227
G1 F300.0 X-19.1477 Y98.9002
G2 F800.0 X-18.075 Y100.862 I2.1477 J0.0998
G2 X-14.85 Y99.0 I1.075 J-1.862
G2 X-18.075 Y97.138 I-2.15 J0.0
G2 X-19.1477 Y98.9002 I1.075 J1.862
G1 F300.0 X-20.3464 Y98.8446
G2 F800.0 X-18.675 Y101.9012 I3.3464 J0.1554
G2 X-13.65 Y99.0 I1.675 J-2.9012
G2 X-18.675 Y96.0988 I-3.35 J0.0
G2 X-20.3464 Y98.8446 I1.675 J2.9012
G1 F300.0 X-21.5451 Y98.7889
G2 F800.0 X-19.275 Y102.9404 I4.5451 J0.2111
G2 X-12.45 Y99.0 I2.275 J-3.9404
G2 X-19.275 Y95.0596 I-4.55 J0.0
G2 X-21.5451 Y98.7889 I2.275 J3.9404
G0 Z3.0
G0 X-17.0785 Y44.9467
G1 F300.0 Z-3.1
G2 F800.0 X-16.05 Y44.0 I0.0785 J-0.9467
G2 X-17.475 Y43.1773 I-0.95 J0.0
G2 Y44.8227 I0.475 J0.8227
G2 X-17.0785 Y44.9467 I0.475 J-0.8227
G1 F300.0 X-17.1777 Y46.1426
G2 F800.0 X-14.85 Y44.0 I0.1777 J-2.1426
G2 X-18.075 Y42.138 I-2.15 J0.0
G2 Y45.862 I1.075 J1.862
G2 X-17.1777 Y46.1426 I1.075 J-1.862
G1 F300.0 X-17.277 Y47.3385
G2 F800.0 X-13.65 Y44.0 I0.277 J-3.3385
G2 X-18.675 Y41.0988 I-3.35 J0.0
G2 Y46.9012 I1.675 J2.9012
G2 X-17.277 Y47.3385 I1.675 J-2.9012
G1 F300.0 X-17.3762 Y48.5344
G2 F800.0 X-12.45 Y44.0 I0.3762 J-4.5344
G2 X-19.275 Y40.0596 I-4.55 J0.0
G2 Y47.9404 I2.275 J3.9404
G2 X-17.3762 Y48.5344 I2.275 J-3.9404
( Pockets )
G61
S1000
G0 Z3.0
G0 X-102.1 Y-9.1
G1 F300.0 Z-1.1
G1 F800.0 Y119.1
G1 X-101.8
G1 Y-9.1
G1 X-102.1
G1 F300.0 Y-10.3
G1 F800.0 X-103.3
G1 Y120.3
G1 X-100.6
G1 Y-10.3
G1 X-102.1
G1 F300.0 Y-11.5
G1 F800.0 X-104.5
G1 Y121.5
G1 X-99.4
G1 Y-11.5
G1 X-102.1
G0 Z3.0
G0 X-92.1 Y-9.1
G1 F300.0 Z-1.1
G1 F800.0 Y119.1
G1 X-91.8
G1 Y-9.1
G1 X-92.1
G1 F300.0 X-93.3
G1 F800.0 Y120.3
G1 X-90.6
G1 Y-10.3
G1 X-93.3
G1 Y-9.1
G1 F300.0 X-94.5
G1 F800.0 Y121.5
G1 X-89.4
G1 Y-11.5
G1 X-94.5
G1 Y-9.1
G0 Z3.0
G0 X-82.1
G1 F300.0 Z-1.1
G1 F800.0 Y119.1
G1 X-81.8
G1 Y-9.1
G1 X-82.1
G1 F300.0 Y-10.3
G1 F800.0 X-83.3
G1 Y120.3
G1 X-80.6
G1 Y-10.3
G1 X-82.1
G1 F300.0 Y-11.5
G1 F800.0 X-84.5
G1 Y121.5
G1 X-79.4
G1 Y-11.5
G1 X-82.1
G0 Z3.0
G0 X-72.1 Y-9.1
G1 F300.0 Z-1.1
G1 F800.0 Y119.1
G1 X-71.8
G1 Y-9.1
G1 X-72.1
G1 F300.0 Y-10.3
G1 F800.0 X-73.3
G1 Y120.3
G1 X-70.6
G1 Y-10.3
G1 X-72.1
G1 F300.0 Y-11.5
G1 F800.0 X-74.5
G1 Y121.5
G1 X-69.4
G1 Y-11.5
G1 X-72.1
G0 Z3.0
G0 X-62.1 Y-9.1
G1 F300.0 Z-1.1
G1 F800.0 Y119.1
G1 X-61.8
G1 Y-9.1
G1 X-62.1
G1 F300.0 Y-10.3
G1 F800.0 X-63.3
G1 Y120.3
G1 X-60.6
G1 Y-10.3
G1 X-62.1
G1 F300.0 Y-11.5
G1 F800.0 X-64.5
G1 Y121.5
G1 X-59.4
G1 Y-11.5
G1 X-62.1
G0 Z3.0
G0 X-52.1 Y-9.1
G1 F300.0 Z-1.1
G1 F800.0 Y119.1
G1 X-51.8
G1 Y-9.1
G1 X-52.1
G1 F300.0 X-53.3
G1 F800.0 Y120.3
G1 X-50.6
G1 Y-10.3
G1 X-53.3
G1 Y-9.1
G1 F300.0 X-54.5
G1 F800.0 Y121.5
G1 X-49.4
G1 Y-11.5
G1 X-54.5
G1 Y-9.1
G0 Z3.0
G0 X-42.1
G1 F300.0 Z-1.1
G1 F800.0 Y119.1
G1 X-41.8
G1 Y-9.1
G1 X-42.1
G1 F300.0 X-43.3
G1 F800.0 Y120.3
G1 X-40.6
G1 Y-10.3
G1 X-43.3
G1 Y-9.1
G1 F300.0 X-44.5
G1 F800.0 Y121.5
G1 X-39.4
G1 Y-11.5
G1 X-44.5
G1 Y-9.1
G0 Z3.0
G0 X-32.1
G1 F300.0 Z-1.1
G1 F800.0 Y119.1
G1 X-31.8
G1 Y-9.1
G1 X-32.1
G1 F300.0 X-33.3
G1 F800.0 Y120.3
G1 X-30.6
G1 Y-10.3
G1 X-33.3
G1 Y-9.1
G1 F300.0 X-34.5
G1 F800.0 Y121.5
G1 X-29.4
G1 Y-11.5
G1 X-34.5
G1 Y-9.1
G0 Z3.0
G0 X-16.7 Y27.3
G1 F300.0 Z-1.1
G1 F800.0 Y29.7
G1 X-14.3
G1 Y27.3
G1 X-16.7
G1 F300.0 Y26.1
G1 F800.0 X-17.9
G1 Y30.9
G1 X-13.1
G1 Y26.1
G1 X-16.7
G1 F300.0 Y24.9
G1 F800.0 X-19.1
G1 Y32.1
G1 X-11.9
G1 Y24.9
G1 X-16.7
G1 F300.0 Y23.7
G1 F800.0 X-20.3
G1 Y33.3
G1 X-10.7
G1 Y23.7
G1 X-16.7
G1 F300.0 Y22.5
G1 F800.0 X-21.5
G1 Y34.5
G1 X-9.5
G1 Y22.5
G1 X-16.7
G0 Z3.0
G0 Y58.3
G1 F300.0 Z-1.1
G1 F800.0 Y60.7
G1 X-14.3
G1 Y58.3
G1 X-16.7
G1 F300.0 X-17.9
G1 F800.0 Y61.9
G1 X-13.1
G1 Y57.1
G1 X-17.9
G1 Y58.3
G1 F300.0 X-19.1
G1 F800.0 Y63.1
G1 X-11.9
G1 Y55.9
G1 X-19.1
G1 Y58.3
G1 F300.0 X-20.3
G1 F800.0 Y64.3
G1 X-10.7
G1 Y54.7
G1 X-20.3
G1 Y58.3
G1 F300.0 X-21.5
G1 F800.0 Y65.5
G1 X-9.5
G1 Y53.5
G1 X-21.5
G1 Y58.3
G0 Z3.0
G0 X-16.7 Y77.3
G1 F300.0 Z-1.1
G1 F800.0 Y79.7
G1 X-14.3
G1 Y77.3
G1 X-16.7
G1 F300.0 Y76.1
G1 F800.0 X-17.9
G1 Y80.9
G1 X-13.1
G1 Y76.1
G1 X-16.7
G1 F300.0 Y74.9
G1 F800.0 X-19.1
G1 Y82.1
G1 X-11.9
G1 Y74.9
G1 X-16.7
G1 F300.0 Y73.7
G1 F800.0 X-20.3
G1 Y83.3
G1 X-10.7
G1 Y73.7
G1 X-16.7
G1 F300.0 Y72.5
G1 F800.0 X-21.5
G1 Y84.5
G1 X-9.5
G1 Y72.5
G1 X-16.7
G0 Z3.0
G0 X2.3 Y95.3
G1 F300.0 Z-1.1
G1 F800.0 Y97.7
G1 X4.7
G1 Y95.3
G1 X2.3
G1 F300.0 X1.1
G1 F800.0 Y98.9
G1 X5.9
G1 Y94.1
G1 X1.1
G1 Y95.3
G1 F300.0 X-0.1
G1 F800.0 Y100.1
G1 X7.1
G1 Y92.9
G1 X-0.1
G1 Y95.3
G1 F300.0 X-1.3
G1 F800.0 Y101.3
G1 X8.3
G1 Y91.7
G1 X-1.3
G1 Y95.3
G1 F300.0 X-2.5
G1 F800.0 Y102.5
G1 X9.5
G1 Y90.5
G1 X-2.5
G1 Y95.3
G0 Z3.0
G0 X2.3 Y116.3
G1 F300.0 Z-1.1
G1 F800.0 Y116.7
G1 X4.7
G1 Y116.3
G1 X2.3
G1 F300.0 X1.1
G1 F800.0 Y117.9
G1 X5.9
G1 Y115.1
G1 X1.1
G1 Y116.3
G1 F300.0 X-0.1
G1 F800.0 Y119.1
G1 X7.1
G1 Y113.9
G1 X-0.1
G1 Y116.3
G1 F300.0 X-1.3
G1 F800.0 Y120.3
G1 X8.3
G1 Y112.7
G1 X-1.3
G1 Y116.3
G1 F300.0 X-2.5
G1 F800.0 Y121.5
G1 X9.5
G1 Y111.5
G1 X-2.5
G1 Y116.3
G0 Z3.0
G0 X-14.3
G1 F300.0 Z-1.1
G1 F800.0 X-16.7
G1 Y116.7
G1 X-14.3
G1 Y116.3
G1 F300.0 Y115.1
G1 F800.0 X-17.9
G1 Y117.9
G1 X-13.1
G1 Y115.1
G1 X-14.3
G1 F300.0 Y113.9
G1 F800.0 X-19.1
G1 Y119.1
G1 X-11.9
G1 Y113.9
G1 X-14.3
G1 F300.0 Y112.7
G1 F800.0 X-20.3
G1 Y120.3
G1 X-10.7
G1 Y112.7
G1 X-14.3
G1 F300.0 Y111.5
G1 F800.0 X-21.5
G1 Y121.5
G1 X-9.5
G1 Y111.5
G1 X-14.3
G0 Z3.0
G0 X21.3 Y97.7
G1 F300.0 Z-1.1
G1 F800.0 X23.7
G1 Y95.3
G1 X21.3
G1 Y97.7
G1 F300.0 Y98.9
G1 F800.0 X24.9
G1 Y94.1
G1 X20.1
G1 Y98.9
G1 X21.3
G1 F300.0 Y100.1
G1 F800.0 X26.1
G1 Y92.9
G1 X18.9
G1 Y100.1
G1 X21.3
G1 F300.0 Y101.3
G1 F800.0 X27.3
G1 Y91.7
G1 X17.7
G1 Y101.3
G1 X21.3
G1 F300.0 Y102.5
G1 F800.0 X28.5
G1 Y90.5
G1 X16.5
G1 Y102.5
G1 X21.3
G0 Z3.0
G0 X40.3 Y97.7
G1 F300.0 Z-1.1
G1 F800.0 X42.7
G1 Y95.3
G1 X40.3
G1 Y97.7
G1 F300.0 Y98.9
G1 F800.0 X43.9
G1 Y94.1
G1 X39.1
G1 Y98.9
G1 X40.3
G1 F300.0 Y100.1
G1 F800.0 X45.1
G1 Y92.9
G1 X37.9
G1 Y100.1
G1 X40.3
G1 F300.0 Y101.3
G1 F800.0 X46.3
G1 Y91.7
G1 X36.7
G1 Y101.3
G1 X40.3
G1 F300.0 Y102.5
G1 F800.0 X47.5
G1 Y90.5
G1 X35.5
G1 Y102.5
G1 X40.3
G0 Z3.0
G0 X59.3 Y97.7
G1 F300.0 Z-1.1
G1 F800.0 X61.7
G1 Y95.3
G1 X59.3
G1 Y97.7
G1 F300.0 X58.1
G1 F800.0 Y98.9
G1 X62.9
G1 Y94.1
G1 X58.1
G1 Y97.7
G1 F300.0 X56.9
G1 F800.0 Y100.1
G1 X64.1
G1 Y92.9
G1 X56.9
G1 Y97.7
G1 F300.0 X55.7
G1 F800.0 Y101.3
G1 X65.3
G1 Y91.7
G1 X55.7
G1 Y97.7
G1 F300.0 X54.5
G1 F800.0 Y102.5
G1 X66.5
G1 Y90.5
G1 X54.5
G1 Y97.7
G0 Z3.0
G0 X78.3
G1 F300.0 Z-1.1
G1 F800.0 X80.7
G1 Y95.3
G1 X78.3
G1 Y97.7
G1 F300.0 X77.1
G1 F800.0 Y98.9
G1 X81.9
G1 Y94.1
G1 X77.1
G1 Y97.7
G1 F300.0 X75.9
G1 F800.0 Y100.1
G1 X83.1
G1 Y92.9
G1 X75.9
G1 Y97.7
G1 F300.0 X74.7
G1 F800.0 Y101.3
G1 X84.3
G1 Y91.7
G1 X74.7
G1 Y97.7
G1 F300.0 X73.5
G1 F800.0 Y102.5
G1 X85.5
G1 Y90.5
G1 X73.5
G1 Y97.7
G0 Z3.0
G0 X97.3
G1 F300.0 Z-1.1
G1 F800.0 X99.7
G1 Y95.3
G1 X97.3
G1 Y97.7
G1 F300.0 X96.1
G1 F800.0 Y98.9
G1 X100.9
G1 Y94.1
G1 X96.1
G1 Y97.7
G1 F300.0 X94.9
G1 F800.0 Y100.1
G1 X102.1
G1 Y92.9
G1 X94.9
G1 Y97.7
G1 F300.0 X93.7
G1 F800.0 Y101.3
G1 X103.3
G1 Y91.7
G1 X93.7
G1 Y97.7
G1 F300.0 X92.5
G1 F800.0 Y102.5
G1 X104.5
G1 Y90.5
G1 X92.5
G1 Y97.7
G0 Z3.0
G0 X116.3
G1 F300.0 Z-1.1
G1 F800.0 X118.7
G1 Y95.3
G1 X116.3
G1 Y97.7
G1 F300.0 X115.1
G1 F800.0 Y98.9
G1 X119.9
G1 Y94.1
G1 X115.1
G1 Y97.7
G1 F300.0 X113.9
G1 F800.0 Y100.1
G1 X121.1
G1 Y92.9
G1 X113.9
G1 Y97.7
G1 F300.0 X112.7
G1 F800.0 Y101.3
G1 X122.3
G1 Y91.7
G1 X112.7
G1 Y97.7
G1 F300.0 X111.5
G1 F800.0 Y102.5
G1 X123.5
G1 Y90.5
G1 X111.5
G1 Y97.7
( CrosshairPocket )
S1000
G0 Z3.0
G0 X-114.269 Y20.0
G1 F300.0 Z-1.0
G2 F1000.0 X-115.3655 Y19.367 I-0.731 J0.0
G2 Y20.633 I0.3655 J0.633
G2 X-114.269 Y20.0 I0.3655 J-0.633
G1 F300.0 X-113.069
G2 F1000.0 X-115.9655 Y18.3277 I-1.931 J0.0
G2 Y21.6723 I0.9655 J1.6723
G2 X-113.069 Y20.0 I0.9655 J-1.6723
G1 F300.0 X-111.869
G2 F1000.0 X-116.5655 Y17.2885 I-3.131 J0.0
G2 Y22.7115 I1.5655 J2.7115
G2 X-111.869 Y20.0 I1.5655 J-2.7115
G1 F300.0 X-110.669
G2 F1000.0 X-117.1655 Y16.2493 I-4.331 J0.0
G2 Y23.7507 I2.1655 J3.7507
G2 X-110.669 Y20.0 I2.1655 J-3.7507
G0 Z3.0
G0 X49.3708 Y114.628
G1 F300.0 Z-1.0
G2 F1000.0 X49.6345 Y115.633 I0.6292 J0.372
G2 X50.731 Y115.0 I0.3655 J-0.633
G2 X49.6345 Y114.367 I-0.731 J0.0
G2 X49.3708 Y114.628 I0.3655 J0.633
G1 F300.0 X48.3379 Y114.0172
G2 F1000.0 X49.0345 Y116.6723 I1.6621 J0.9828
G2 X51.931 Y115.0 I0.9655 J-1.6723
G2 X49.0345 Y113.3277 I-1.931 J0.0
G2 X48.3379 Y114.0172 I0.9655 J1.6723
G1 F300.0 X47.3049 Y113.4065
G2 F1000.0 X48.4345 Y117.7115 I2.6951 J1.5935
G2 X53.131 Y115.0 I1.5655 J-2.7115
G2 X48.4345 Y112.2885 I-3.131 J0.0
G2 X47.3049 Y113.4065 I1.5655 J2.7115
G1 F300.0 X46.272 Y112.7957
G2 F1000.0 X47.8345 Y118.7507 I3.728 J2.2043
G2 X54.331 Y115.0 I2.1655 J-3.7507
G2 X47.8345 Y111.2493 I-4.331 J0.0
G2 X46.272 Y112.7957 I2.1655 J3.7507
G0 Z3.0
G0 X129.5103 Y20.5427
G1 F300.0 Z-1.0
G2 F1000.0 X129.6345 Y20.633 I0.4897 J-0.5427
G2 X130.731 Y20.0 I0.3655 J-0.633
G2 X129.6345 Y19.367 I-0.731 J0.0
G2 X129.5103 Y20.5427 I0.3655 J0.633
G1 F300.0 X128.7065 Y21.4336
G2 F1000.0 X129.0345 Y21.6723 I1.2935 J-1.4336
G2 X131.931 Y20.0 I0.9655 J-1.6723
G2 X129.0345 Y18.3277 I-1.931 J0.0
G2 X128.7065 Y21.4336 I0.9655 J1.6723
G1 F300.0 X127.9026 Y22.3246
G2 F1000.0 X128.4345 Y22.7115 I2.0974 J-2.3246
G2 X133.131 Y20.0 I1.5655 J-2.7115
G2 X128.4345 Y17.2885 I-3.131 J0.0
G2 X127.9026 Y22.3246 I1.5655 J2.7115
G1 F300.0 X127.0987 Y23.2155
G2 F1000.0 X127.8345 Y23.7507 I2.9013 J-3.2155
G2 X134.331 Y20.0 I2.1655 J-3.7507
G2 X127.8345 Y16.2493 I-4.331 J0.0
G2 X127.0987 Y23.2155 I2.1655 J3.7507
( PCB Holder )
S1000
G0 Z3.0
G0 X-0.3 Y-0.3
G1 F300.0 Z-1.1
G1 F1500.0 Y0.3
G1 X0.3
G1 Y-0.3
G1 X-0.3
G1 F300.0 X-1.5
G1 F1500.0 Y1.5
G1 X1.5
G1 Y-1.5
G1 X-1.5
G1 Y-0.3
G0 Z3.0
G0 X39.9 Y39.9
G1 F300.0 Z-1.1
G1 F1500.0 Y41.1
G1 X81.1
G1 Y39.9
G1 X39.9
G1 F300.0 Y38.7
G1 F1500.0 X38.7
G1 Y42.3
G1 X82.3
G1 Y38.7
G1 X39.9
G1 F300.0 Y37.5
G1 F1500.0 X37.5
G1 Y43.5
G1 X83.5
G1 Y37.5
G1 X39.9
G1 F300.0 Y36.3
G1 F1500.0 X36.3
G1 Y44.7
G1 X84.7
G1 Y36.3
G1 X39.9
G1 F300.0 Y35.1
G1 F1500.0 X35.1
G1 Y45.9
G1 X85.9
G1 Y35.1
G1 X39.9
G1 F300.0 Y33.9
G1 F1500.0 X33.9
G1 Y47.1
G1 X87.1
G1 Y33.9
G1 X39.9
G1 F300.0 Y32.7
G1 F1500.0 X32.7
G1 Y48.3
G1 X88.3
G1 Y32.7
G1 X39.9
G1 F300.0 Y31.5
G1 F1500.0 X31.5
G1 Y49.5
G1 X89.5
G1 Y31.5
G1 X39.9
G1 F300.0 Y30.3
G1 F1500.0 X30.3
G1 Y50.7
G1 X90.7
G1 Y30.3
G1 X39.9
G1 F300.0 Y29.1
G1 F1500.0 X29.1
G1 Y51.9
G1 X91.9
G1 Y29.1
G1 X39.9
G1 F300.0 Y27.9
G1 F1500.0 X27.9
G1 Y53.1
G1 X93.1
G1 Y27.9
G1 X39.9
G1 F300.0 Y26.7
G1 F1500.0 X26.7
G1 Y54.3
G1 X94.3
G1 Y26.7
G1 X39.9
G1 F300.0 Y25.5
G1 F1500.0 X25.5
G1 Y55.5
G1 X95.5
G1 Y25.5
G1 X39.9
G1 F300.0 Y24.3
G1 F1500.0 X24.3
G1 Y56.7
G1 X96.7
G1 Y24.3
G1 X39.9
G1 F300.0 Y23.1
G1 F1500.0 X23.1
G1 Y57.9
G1 X97.9
G1 Y23.1
G1 X39.9
G1 F300.0 Y21.9
G1 F1500.0 X21.9
G1 Y59.1
G1 X99.1
G1 Y21.9
G1 X39.9
G1 F300.0 Y20.7
G1 F1500.0 X20.7
G1 Y60.3
G1 X100.3
G1 Y20.7
G1 X39.9
G1 F300.0 Y19.5
G1 F1500.0 X19.5
G1 Y61.5
G1 X101.5
G1 Y19.5
G1 X39.9
G1 F300.0 Y18.3
G1 F1500.0 X18.3
G1 Y62.7
G1 X102.7
G1 Y18.3
G1 X39.9
G1 F300.0 Y17.1
G1 F1500.0 X17.1
G1 Y63.9
G1 X103.9
G1 Y17.1
G1 X39.9
G1 F300.0 Y15.9
G1 F1500.0 X15.9
G1 Y65.1
G1 X105.1
G1 Y15.9
G1 X39.9
G1 F300.0 Y14.7
G1 F1500.0 X14.7
G1 Y66.3
G1 X106.3
G1 Y14.7
G1 X39.9
G1 F300.0 Y13.5
G1 F1500.0 X13.5
G1 Y67.5
G1 X107.5
G1 Y13.5
G1 X39.9
G1 F300.0 Y12.3
G1 F1500.0 X12.3
G1 Y68.7
G1 X108.7
G1 Y12.3
G1 X39.9
G1 F300.0 Y11.1
G1 F1500.0 X11.1
G1 Y69.9
G1 X109.9
G1 Y11.1
G1 X39.9
G1 F300.0 Y9.9
G1 F1500.0 X9.9
G1 Y71.1
G1 X111.1
G1 Y9.9
G1 X39.9
G1 F300.0 Y8.7
G1 F1500.0 X8.7
G1 Y72.3
G1 X112.3
G1 Y8.7
G1 X39.9
G1 F300.0 Y7.5
G1 F1500.0 X7.5
G1 Y73.5
G1 X113.5
G1 Y7.5
G1 X39.9
G1 F300.0 Y6.3
G1 F1500.0 X6.3
G1 Y74.7
G1 X114.7
G1 Y6.3
G1 X39.9
G1 F300.0 Y5.1
G1 F1500.0 X5.1
G1 Y75.9
G1 X115.9
G1 Y5.1
G1 X39.9
G1 F300.0 Y3.9
G1 F1500.0 X3.9
G1 Y77.1
G1 X117.1
G1 Y3.9
G1 X39.9
G1 F300.0 Y2.7
G1 F1500.0 X2.7
G1 Y78.3
G1 X118.3
G1 Y2.7
G1 X39.9
G1 F300.0 Y1.5
G1 F1500.0 X1.5
G1 Y79.5
G1 X119.5
G1 Y1.5
G1 X39.9
G0 Z3.0
G0 X124.5 Y39.5
G1 F300.0 Z-1.1
G1 F1500.0 Y40.5
G1 X134.5
G1 Y39.5
G1 X124.5
( Gravierungen )
G0 Z3.0
( T10 : 0.0 )
T10 M6
M3 S1000
G0 X-114.5 Y20.0
G1 F300.0 Z-1.1
G3 F1000.0 X-115.25 Y20.433 I-0.5 J0.0
G3 Y19.567 I0.25 J-0.433
G3 X-114.5 Y20.0 I0.25 J0.433
G0 Z3.0
G0 X-114.0
G1 F300.0 Z-1.1
G3 F1000.0 X-115.5 Y20.866 I-1.0 J0.0
G3 Y19.134 I0.5 J-0.866
G3 X-114.0 Y20.0 I0.5 J0.866
G0 Z3.0
G0 X-112.5
G1 F300.0 Z-1.1
G3 F1000.0 X-116.25 Y22.1651 I-2.5 J0.0
G3 Y17.8349 I1.25 J-2.1651
G3 X-112.5 Y20.0 I1.25 J2.1651
G0 Z3.0
G0 X-112.0
G1 F300.0 Z-1.1
G1 F1000.0 X-118.0
G0 Z3.0
G0 X-115.0 Y23.0
G1 F300.0 Z-1.1
G1 F1000.0 Y17.0
G0 Z3.0
G0 X47.0 Y115.0
G1 F300.0 Z-1.1
G1 F1000.0 X53.0
G0 Z3.0
G0 X51.0
G1 F300.0 Z-1.1
G3 F1000.0 X49.5 Y115.866 I-1.0 J0.0
G3 Y114.134 I0.5 J-0.866
G3 X51.0 Y115.0 I0.5 J0.866
G0 Z3.0
G0 X50.5
G1 F300.0 Z-1.1
G3 F1000.0 X49.75 Y115.433 I-0.5 J0.0
G3 Y114.567 I0.25 J-0.433
G3 X50.5 Y115.0 I0.25 J0.433
G0 Z3.0
G0 X52.5
G1 F300.0 Z-1.1
G3 F1000.0 X48.75 Y117.1651 I-2.5 J0.0
G3 Y112.8349 I1.25 J-2.1651
G3 X52.5 Y115.0 I1.25 J2.1651
G0 Z3.0
G0 X50.0 Y118.0
G1 F300.0 Z-1.1
G1 F1000.0 Y112.0
G0 Z3.0
G0 X130.0 Y23.0
G1 F300.0 Z-1.1
G1 F1000.0 Y17.0
G0 Z3.0
G0 Y19.0
G1 F300.0 Z-1.1
G3 F1000.0 X131.0 Y20.0 I0.0 J1.0
G3 X129.5 Y20.866 I-1.0 J0.0
G3 Y19.134 I0.5 J-0.866
G3 X130.0 Y19.0 I0.5 J0.866
G0 Z3.0
G0 Y19.5
G1 F300.0 Z-1.1
G3 F1000.0 X130.5 Y20.0 I0.0 J0.5
G3 X129.75 Y20.433 I-0.5 J0.0
G3 Y19.567 I0.25 J-0.433
G3 X130.0 Y19.5 I0.25 J0.433
G0 Z3.0
G0 Y17.5
G1 F300.0 Z-1.1
G3 F1000.0 X132.5 Y20.0 I0.0 J2.5
G3 X128.75 Y22.1651 I-2.5 J0.0
G3 Y17.8349 I1.25 J-2.1651
G3 X130.0 Y17.5 I1.25 J2.1651
G0 Z3.0
G0 X127.0 Y20.0
G1 F300.0 Z-1.1
G1 F1000.0 X133.0
G0 Z3.0
M5
M30
