( Made using CamBam - http://www.cambam.co.uk )
( XdispenserAuger 12/5/2015 10:40:20 AM )
( T2 : 2.0 )
G21 G90 G64 G40
G0 Z3.0
( T2 : 2.0 )
T2 M6
( Adapter )
G17
M3 S1000
G0 X17.625 Y16.625
G1 F800.0 Z-2.5
G1 F1000.0 X22.375
G3 X23.375 Y17.625 I0.0 J1.0
G1 Y22.375
G3 X22.375 Y23.375 I-1.0 J0.0
G1 X17.625
G3 X16.625 Y22.375 I0.0 J-1.0
G1 Y17.625
G3 X17.625 Y16.625 I1.0 J0.0
G1 F800.0 Z-5.0
G1 F1000.0 X22.375
G3 X23.375 Y17.625 I0.0 J1.0
G1 Y22.375
G3 X22.375 Y23.375 I-1.0 J0.0
G1 X17.625
G3 X16.625 Y22.375 I0.0 J-1.0
G1 Y17.625
G3 X17.625 Y16.625 I1.0 J0.0
G1 F800.0 Z-7.5
G1 F1000.0 X22.375
G3 X23.375 Y17.625 I0.0 J1.0
G1 Y22.375
G3 X22.375 Y23.375 I-1.0 J0.0
G1 X17.625
G3 X16.625 Y22.375 I0.0 J-1.0
G1 Y17.625
G3 X17.625 Y16.625 I1.0 J0.0
G1 F800.0 Z-10.0
G1 F1000.0 X22.375
G3 X23.375 Y17.625 I0.0 J1.0
G1 Y22.375
G3 X22.375 Y23.375 I-1.0 J0.0
G1 X17.625
G3 X16.625 Y22.375 I0.0 J-1.0
G1 Y17.625
G3 X17.625 Y16.625 I1.0 J0.0
G1 F800.0 Z-10.25
G1 F1000.0 X22.375
G3 X23.375 Y17.625 I0.0 J1.0
G1 Y22.375
G3 X22.375 Y23.375 I-1.0 J0.0
G1 X17.625
G3 X16.625 Y22.375 I0.0 J-1.0
G1 Y17.625
G3 X17.625 Y16.625 I1.0 J0.0
( Holes )
S1000
G0 Z3.0
G0 X41.5 Y110.0
G1 F800.0 Z-2.5
G2 F1000.0 X39.25 Y108.701 I-1.5 J0.0
G2 Y111.299 I0.75 J1.299
G2 X41.5 Y110.0 I0.75 J-1.299
G1 F800.0 Z-5.0
G2 F1000.0 X39.25 Y108.701 I-1.5 J0.0
G2 Y111.299 I0.75 J1.299
G2 X41.5 Y110.0 I0.75 J-1.299
G1 F800.0 Z-7.5
G2 F1000.0 X39.25 Y108.701 I-1.5 J0.0
G2 Y111.299 I0.75 J1.299
G2 X41.5 Y110.0 I0.75 J-1.299
G1 F800.0 Z-10.0
G2 F1000.0 X39.25 Y108.701 I-1.5 J0.0
G2 Y111.299 I0.75 J1.299
G2 X41.5 Y110.0 I0.75 J-1.299
G1 F800.0 Z-10.25
G2 F1000.0 X39.25 Y108.701 I-1.5 J0.0
G2 Y111.299 I0.75 J1.299
G2 X41.5 Y110.0 I0.75 J-1.299
G0 Z3.0
G0 X45.3386 Y94.8323
G1 F800.0 Z-2.5
G2 F1000.0 X69.0 Y76.413 I4.6614 J-18.4193
G2 X40.5 Y59.9585 I-19.0 J0.0
G2 Y92.8675 I9.5 J16.4545
G2 X45.3386 Y94.8323 I9.5 J-16.4545
G1 F800.0 Z-5.0
G2 F1000.0 X69.0 Y76.413 I4.6614 J-18.4193
G2 X40.5 Y59.9585 I-19.0 J0.0
G2 Y92.8675 I9.5 J16.4545
G2 X45.3386 Y94.8323 I9.5 J-16.4545
G1 F800.0 Z-7.5
G2 F1000.0 X69.0 Y76.413 I4.6614 J-18.4193
G2 X40.5 Y59.9585 I-19.0 J0.0
G2 Y92.8675 I9.5 J16.4545
G2 X45.3386 Y94.8323 I9.5 J-16.4545
G1 F800.0 Z-10.0
G2 F1000.0 X69.0 Y76.413 I4.6614 J-18.4193
G2 X40.5 Y59.9585 I-19.0 J0.0
G2 Y92.8675 I9.5 J16.4545
G2 X45.3386 Y94.8323 I9.5 J-16.4545
G1 F800.0 Z-10.25
G2 F1000.0 X69.0 Y76.413 I4.6614 J-18.4193
G2 X40.5 Y59.9585 I-19.0 J0.0
G2 Y92.8675 I9.5 J16.4545
G2 X45.3386 Y94.8323 I9.5 J-16.4545
G0 Z3.0
G0 X58.9575 Y108.9215
G1 F800.0 Z-2.5
G2 F1000.0 X59.25 Y111.299 I1.0425 J1.0785
G2 X61.5 Y110.0 I0.75 J-1.299
G2 X59.25 Y108.701 I-1.5 J0.0
G2 X58.9575 Y108.9215 I0.75 J1.299
G1 F800.0 Z-5.0
G2 F1000.0 X59.25 Y111.299 I1.0425 J1.0785
G2 X61.5 Y110.0 I0.75 J-1.299
G2 X59.25 Y108.701 I-1.5 J0.0
G2 X58.9575 Y108.9215 I0.75 J1.299
G1 F800.0 Z-7.5
G2 F1000.0 X59.25 Y111.299 I1.0425 J1.0785
G2 X61.5 Y110.0 I0.75 J-1.299
G2 X59.25 Y108.701 I-1.5 J0.0
G2 X58.9575 Y108.9215 I0.75 J1.299
G1 F800.0 Z-10.0
G2 F1000.0 X59.25 Y111.299 I1.0425 J1.0785
G2 X61.5 Y110.0 I0.75 J-1.299
G2 X59.25 Y108.701 I-1.5 J0.0
G2 X58.9575 Y108.9215 I0.75 J1.299
G1 F800.0 Z-10.25
G2 F1000.0 X59.25 Y111.299 I1.0425 J1.0785
G2 X61.5 Y110.0 I0.75 J-1.299
G2 X59.25 Y108.701 I-1.5 J0.0
G2 X58.9575 Y108.9215 I0.75 J1.299
G0 Z3.0
G0 X60.987 Y38.4498
G1 F800.0 Z-2.5
G2 F1000.0 X61.45 Y38.0 I0.013 J-0.4498
G2 X60.775 Y37.6103 I-0.45 J0.0
G2 Y38.3897 I0.225 J0.3897
G2 X60.987 Y38.4498 I0.225 J-0.3897
G1 F800.0 Z-5.0
G2 F1000.0 X61.45 Y38.0 I0.013 J-0.4498
G2 X60.775 Y37.6103 I-0.45 J0.0
G2 Y38.3897 I0.225 J0.3897
G2 X60.987 Y38.4498 I0.225 J-0.3897
G1 F800.0 Z-7.5
G2 F1000.0 X61.45 Y38.0 I0.013 J-0.4498
G2 X60.775 Y37.6103 I-0.45 J0.0
G2 Y38.3897 I0.225 J0.3897
G2 X60.987 Y38.4498 I0.225 J-0.3897
G1 F800.0 Z-10.0
G2 F1000.0 X61.45 Y38.0 I0.013 J-0.4498
G2 X60.775 Y37.6103 I-0.45 J0.0
G2 Y38.3897 I0.225 J0.3897
G2 X60.987 Y38.4498 I0.225 J-0.3897
G1 F800.0 Z-10.25
G2 F1000.0 X61.45 Y38.0 I0.013 J-0.4498
G2 X60.775 Y37.6103 I-0.45 J0.0
G2 Y38.3897 I0.225 J0.3897
G2 X60.987 Y38.4498 I0.225 J-0.3897
G0 Z3.0
G0 X69.5278 Y29.6686
G1 F800.0 Z-2.5
G2 F1000.0 X71.5 Y31.1603 I6.9722 J-7.1686
G2 X86.5 Y22.5 I5.0 J-8.6603
G2 X71.5 Y13.8397 I-10.0 J0.0
G2 X69.5278 Y29.6686 I5.0 J8.6603
G1 F800.0 Z-5.0
G2 F1000.0 X71.5 Y31.1603 I6.9722 J-7.1686
G2 X86.5 Y22.5 I5.0 J-8.6603
G2 X71.5 Y13.8397 I-10.0 J0.0
G2 X69.5278 Y29.6686 I5.0 J8.6603
G1 F800.0 Z-7.5
G2 F1000.0 X71.5 Y31.1603 I6.9722 J-7.1686
G2 X86.5 Y22.5 I5.0 J-8.6603
G2 X71.5 Y13.8397 I-10.0 J0.0
G2 X69.5278 Y29.6686 I5.0 J8.6603
G1 F800.0 Z-10.0
G2 F1000.0 X71.5 Y31.1603 I6.9722 J-7.1686
G2 X86.5 Y22.5 I5.0 J-8.6603
G2 X71.5 Y13.8397 I-10.0 J0.0
G2 X69.5278 Y29.6686 I5.0 J8.6603
G1 F800.0 Z-10.25
G2 F1000.0 X71.5 Y31.1603 I6.9722 J-7.1686
G2 X86.5 Y22.5 I5.0 J-8.6603
G2 X71.5 Y13.8397 I-10.0 J0.0
G2 X69.5278 Y29.6686 I5.0 J8.6603
G0 Z3.0
G0 X91.5781 Y37.8436
G1 F800.0 Z-2.5
G2 F1000.0 X91.775 Y38.3897 I0.4219 J0.1564
G2 X92.45 Y38.0 I0.225 J-0.3897
G2 X91.775 Y37.6103 I-0.45 J0.0
G2 X91.5781 Y37.8436 I0.225 J0.3897
G1 F800.0 Z-5.0
G2 F1000.0 X91.775 Y38.3897 I0.4219 J0.1564
G2 X92.45 Y38.0 I0.225 J-0.3897
G2 X91.775 Y37.6103 I-0.45 J0.0
G2 X91.5781 Y37.8436 I0.225 J0.3897
G1 F800.0 Z-7.5
G2 F1000.0 X91.775 Y38.3897 I0.4219 J0.1564
G2 X92.45 Y38.0 I0.225 J-0.3897
G2 X91.775 Y37.6103 I-0.45 J0.0
G2 X91.5781 Y37.8436 I0.225 J0.3897
G1 F800.0 Z-10.0
G2 F1000.0 X91.775 Y38.3897 I0.4219 J0.1564
G2 X92.45 Y38.0 I0.225 J-0.3897
G2 X91.775 Y37.6103 I-0.45 J0.0
G2 X91.5781 Y37.8436 I0.225 J0.3897
G1 F800.0 Z-10.25
G2 F1000.0 X91.775 Y38.3897 I0.4219 J0.1564
G2 X92.45 Y38.0 I0.225 J-0.3897
G2 X91.775 Y37.6103 I-0.45 J0.0
G2 X91.5781 Y37.8436 I0.225 J0.3897
G0 Z3.0
G0 X91.9938 Y7.45
G1 F800.0 Z-2.5
G2 F1000.0 X92.45 Y7.0 I0.0062 J-0.45
G2 X91.775 Y6.6103 I-0.45 J0.0
G2 Y7.3897 I0.225 J0.3897
G2 X91.9938 Y7.45 I0.225 J-0.3897
G1 F800.0 Z-5.0
G2 F1000.0 X92.45 Y7.0 I0.0062 J-0.45
G2 X91.775 Y6.6103 I-0.45 J0.0
G2 Y7.3897 I0.225 J0.3897
G2 X91.9938 Y7.45 I0.225 J-0.3897
G1 F800.0 Z-7.5
G2 F1000.0 X92.45 Y7.0 I0.0062 J-0.45
G2 X91.775 Y6.6103 I-0.45 J0.0
G2 Y7.3897 I0.225 J0.3897
G2 X91.9938 Y7.45 I0.225 J-0.3897
G1 F800.0 Z-10.0
G2 F1000.0 X92.45 Y7.0 I0.0062 J-0.45
G2 X91.775 Y6.6103 I-0.45 J0.0
G2 Y7.3897 I0.225 J0.3897
G2 X91.9938 Y7.45 I0.225 J-0.3897
G1 F800.0 Z-10.25
G2 F1000.0 X92.45 Y7.0 I0.0062 J-0.45
G2 X91.775 Y6.6103 I-0.45 J0.0
G2 Y7.3897 I0.225 J0.3897
G2 X91.9938 Y7.45 I0.225 J-0.3897
G0 Z3.0
G0 X61.45 Y7.0065
G1 F800.0 Z-2.5
G2 F1000.0 Y7.0 I-0.45 J-0.0065
G2 X60.775 Y6.6103 I-0.45 J0.0
G2 Y7.3897 I0.225 J0.3897
G2 X61.45 Y7.0065 I0.225 J-0.3897
G1 F800.0 Z-5.0
G2 F1000.0 Y7.0 I-0.45 J-0.0065
G2 X60.775 Y6.6103 I-0.45 J0.0
G2 Y7.3897 I0.225 J0.3897
G2 X61.45 Y7.0065 I0.225 J-0.3897
G1 F800.0 Z-7.5
G2 F1000.0 Y7.0 I-0.45 J-0.0065
G2 X60.775 Y6.6103 I-0.45 J0.0
G2 Y7.3897 I0.225 J0.3897
G2 X61.45 Y7.0065 I0.225 J-0.3897
G1 F800.0 Z-10.0
G2 F1000.0 Y7.0 I-0.45 J-0.0065
G2 X60.775 Y6.6103 I-0.45 J0.0
G2 Y7.3897 I0.225 J0.3897
G2 X61.45 Y7.0065 I0.225 J-0.3897
G1 F800.0 Z-10.25
G2 F1000.0 Y7.0 I-0.45 J-0.0065
G2 X60.775 Y6.6103 I-0.45 J0.0
G2 Y7.3897 I0.225 J0.3897
G2 X61.45 Y7.0065 I0.225 J-0.3897
G0 Z3.0
G0 X50.8189 Y9.2089
G1 F800.0 Z-2.5
G2 F1000.0 X45.05 Y6.6225 I-3.8189 J0.7911
G2 Y13.3775 I1.95 J3.3775
G2 X50.9 Y10.0 I1.95 J-3.3775
G2 X50.8189 Y9.2089 I-3.9 J0.0
G1 F800.0 Z-5.0
G2 F1000.0 X45.05 Y6.6225 I-3.8189 J0.7911
G2 Y13.3775 I1.95 J3.3775
G2 X50.9 Y10.0 I1.95 J-3.3775
G2 X50.8189 Y9.2089 I-3.9 J0.0
G1 F800.0 Z-7.5
G2 F1000.0 X45.05 Y6.6225 I-3.8189 J0.7911
G2 Y13.3775 I1.95 J3.3775
G2 X50.9 Y10.0 I1.95 J-3.3775
G2 X50.8189 Y9.2089 I-3.9 J0.0
G1 F800.0 Z-10.0
G2 F1000.0 X45.05 Y6.6225 I-3.8189 J0.7911
G2 Y13.3775 I1.95 J3.3775
G2 X50.9 Y10.0 I1.95 J-3.3775
G2 X50.8189 Y9.2089 I-3.9 J0.0
G1 F800.0 Z-10.25
G2 F1000.0 X45.05 Y6.6225 I-3.8189 J0.7911
G2 Y13.3775 I1.95 J3.3775
G2 X50.9 Y10.0 I1.95 J-3.3775
G2 X50.8189 Y9.2089 I-3.9 J0.0
G0 Z3.0
G0 X33.4466 Y7.0554
G1 F800.0 Z-2.5
G2 F1000.0 X33.45 Y7.0 I-0.4466 J-0.0554
G2 X32.775 Y6.6103 I-0.45 J0.0
G2 Y7.3897 I0.225 J0.3897
G2 X33.4466 Y7.0554 I0.225 J-0.3897
G1 F800.0 Z-5.0
G2 F1000.0 X33.45 Y7.0 I-0.4466 J-0.0554
G2 X32.775 Y6.6103 I-0.45 J0.0
G2 Y7.3897 I0.225 J0.3897
G2 X33.4466 Y7.0554 I0.225 J-0.3897
G1 F800.0 Z-7.5
G2 F1000.0 X33.45 Y7.0 I-0.4466 J-0.0554
G2 X32.775 Y6.6103 I-0.45 J0.0
G2 Y7.3897 I0.225 J0.3897
G2 X33.4466 Y7.0554 I0.225 J-0.3897
G1 F800.0 Z-10.0
G2 F1000.0 X33.45 Y7.0 I-0.4466 J-0.0554
G2 X32.775 Y6.6103 I-0.45 J0.0
G2 Y7.3897 I0.225 J0.3897
G2 X33.4466 Y7.0554 I0.225 J-0.3897
G1 F800.0 Z-10.25
G2 F1000.0 X33.45 Y7.0 I-0.4466 J-0.0554
G2 X32.775 Y6.6103 I-0.45 J0.0
G2 Y7.3897 I0.225 J0.3897
G2 X33.4466 Y7.0554 I0.225 J-0.3897
G0 Z3.0
G0 X23.8183 Y16.3243
G1 F800.0 Z-2.5
G2 F1000.0 X17.35 Y15.4101 I-3.8183 J3.6757
G2 Y24.5899 I2.65 J4.5899
G2 X25.3 Y20.0 I2.65 J-4.5899
G2 X23.8183 Y16.3243 I-5.3 J0.0
G1 F800.0 Z-5.0
G2 F1000.0 X17.35 Y15.4101 I-3.8183 J3.6757
G2 Y24.5899 I2.65 J4.5899
G2 X25.3 Y20.0 I2.65 J-4.5899
G2 X23.8183 Y16.3243 I-5.3 J0.0
G1 F800.0 Z-7.5
G2 F1000.0 X17.35 Y15.4101 I-3.8183 J3.6757
G2 Y24.5899 I2.65 J4.5899
G2 X25.3 Y20.0 I2.65 J-4.5899
G2 X23.8183 Y16.3243 I-5.3 J0.0
G1 F800.0 Z-10.0
G2 F1000.0 X17.35 Y15.4101 I-3.8183 J3.6757
G2 Y24.5899 I2.65 J4.5899
G2 X25.3 Y20.0 I2.65 J-4.5899
G2 X23.8183 Y16.3243 I-5.3 J0.0
G1 F800.0 Z-10.25
G2 F1000.0 X17.35 Y15.4101 I-3.8183 J3.6757
G2 Y24.5899 I2.65 J4.5899
G2 X25.3 Y20.0 I2.65 J-4.5899
G2 X23.8183 Y16.3243 I-5.3 J0.0
G0 Z3.0
G0 X32.783 Y32.6058
G1 F800.0 Z-2.5
G2 F1000.0 X32.775 Y32.6103 I0.217 J0.3942
G2 Y33.3897 I0.225 J0.3897
G2 X33.45 Y33.0 I0.225 J-0.3897
G2 X32.783 Y32.6058 I-0.45 J0.0
G1 F800.0 Z-5.0
G2 F1000.0 X32.775 Y32.6103 I0.217 J0.3942
G2 Y33.3897 I0.225 J0.3897
G2 X33.45 Y33.0 I0.225 J-0.3897
G2 X32.783 Y32.6058 I-0.45 J0.0
G1 F800.0 Z-7.5
G2 F1000.0 X32.775 Y32.6103 I0.217 J0.3942
G2 Y33.3897 I0.225 J0.3897
G2 X33.45 Y33.0 I0.225 J-0.3897
G2 X32.783 Y32.6058 I-0.45 J0.0
G1 F800.0 Z-10.0
G2 F1000.0 X32.775 Y32.6103 I0.217 J0.3942
G2 Y33.3897 I0.225 J0.3897
G2 X33.45 Y33.0 I0.225 J-0.3897
G2 X32.783 Y32.6058 I-0.45 J0.0
G1 F800.0 Z-10.25
G2 F1000.0 X32.775 Y32.6103 I0.217 J0.3942
G2 Y33.3897 I0.225 J0.3897
G2 X33.45 Y33.0 I0.225 J-0.3897
G2 X32.783 Y32.6058 I-0.45 J0.0
G0 Z3.0
G0 X7.4499 Y32.9931
G1 F800.0 Z-2.5
G2 F1000.0 X6.775 Y32.6103 I-0.4499 J0.0069
G2 Y33.3897 I0.225 J0.3897
G2 X7.45 Y33.0 I0.225 J-0.3897
G2 X7.4499 Y32.9931 I-0.45 J0.0
G1 F800.0 Z-5.0
G2 F1000.0 X6.775 Y32.6103 I-0.4499 J0.0069
G2 Y33.3897 I0.225 J0.3897
G2 X7.45 Y33.0 I0.225 J-0.3897
G2 X7.4499 Y32.9931 I-0.45 J0.0
G1 F800.0 Z-7.5
G2 F1000.0 X6.775 Y32.6103 I-0.4499 J0.0069
G2 Y33.3897 I0.225 J0.3897
G2 X7.45 Y33.0 I0.225 J-0.3897
G2 X7.4499 Y32.9931 I-0.45 J0.0
G1 F800.0 Z-10.0
G2 F1000.0 X6.775 Y32.6103 I-0.4499 J0.0069
G2 Y33.3897 I0.225 J0.3897
G2 X7.45 Y33.0 I0.225 J-0.3897
G2 X7.4499 Y32.9931 I-0.45 J0.0
G1 F800.0 Z-10.25
G2 F1000.0 X6.775 Y32.6103 I-0.4499 J0.0069
G2 Y33.3897 I0.225 J0.3897
G2 X7.45 Y33.0 I0.225 J-0.3897
G2 X7.4499 Y32.9931 I-0.45 J0.0
G0 Z3.0
G0 X7.0078 Y7.4499
G1 F800.0 Z-2.5
G2 F1000.0 X7.45 Y7.0 I-0.0078 J-0.4499
G2 X6.775 Y6.6103 I-0.45 J0.0
G2 Y7.3897 I0.225 J0.3897
G2 X7.0078 Y7.4499 I0.225 J-0.3897
G1 F800.0 Z-5.0
G2 F1000.0 X7.45 Y7.0 I-0.0078 J-0.4499
G2 X6.775 Y6.6103 I-0.45 J0.0
G2 Y7.3897 I0.225 J0.3897
G2 X7.0078 Y7.4499 I0.225 J-0.3897
G1 F800.0 Z-7.5
G2 F1000.0 X7.45 Y7.0 I-0.0078 J-0.4499
G2 X6.775 Y6.6103 I-0.45 J0.0
G2 Y7.3897 I0.225 J0.3897
G2 X7.0078 Y7.4499 I0.225 J-0.3897
G1 F800.0 Z-10.0
G2 F1000.0 X7.45 Y7.0 I-0.0078 J-0.4499
G2 X6.775 Y6.6103 I-0.45 J0.0
G2 Y7.3897 I0.225 J0.3897
G2 X7.0078 Y7.4499 I0.225 J-0.3897
G1 F800.0 Z-10.25
G2 F1000.0 X7.45 Y7.0 I-0.0078 J-0.4499
G2 X6.775 Y6.6103 I-0.45 J0.0
G2 Y7.3897 I0.225 J0.3897
G2 X7.0078 Y7.4499 I0.225 J-0.3897
( Winkel )
S1000
G0 Z3.0
G0 X43.35 Y110.35
G1 F800.0 Z-2.0
G1 F1000.0 Y111.65
G1 X56.65
G1 Y110.35
G1 X43.35
G1 F800.0 Y109.55
G1 F1000.0 X42.55
G1 Y112.45
G1 X57.45
G1 Y109.55
G1 X43.35
G1 F800.0 Y108.75
G1 F1000.0 X41.75
G1 Y113.25
G1 X58.25
G1 Y108.75
G1 X43.35
G1 F800.0 Y107.95
G1 F1000.0 X40.95
G1 Y114.05
G1 X59.05
G1 Y107.95
G1 X43.35
G1 F800.0 Y107.15
G1 F1000.0 X40.15
G1 Y114.85
G1 X59.85
G1 Y107.15
G1 X43.35
G1 F800.0 Y106.35
G1 F1000.0 X39.35
G1 Y115.65
G1 X60.65
G1 Y106.35
G1 X43.35
G1 F800.0 Y105.55
G1 F1000.0 X38.55
G1 Y116.45
G1 X61.45
G1 Y105.55
G1 X43.35
G1 F800.0 Y104.75
G1 F1000.0 X37.75
G1 Y117.25
G1 X62.25
G1 Y104.75
G1 X43.35
G1 F800.0 Y103.95
G1 F1000.0 X36.95
G1 Y118.05
G1 X63.05
G1 Y103.95
G1 X43.35
G1 F800.0 Y103.15
G1 F1000.0 X36.15
G1 Y118.85
G1 X63.85
G1 Y103.15
G1 X43.35
G1 F800.0 Y102.35
G1 F1000.0 X35.35
G1 Y119.65
G1 X64.65
G1 Y102.35
G1 X43.35
G1 F800.0 Y101.55
G1 F1000.0 X34.55
G1 Y120.45
G1 X65.45
G1 Y101.55
G1 X43.35
G1 F800.0 Y100.75
G1 F1000.0 X33.75
G1 Y121.25
G1 X66.25
G1 Y100.75
G1 X43.35
G0 Z3.0
G0 Y110.35
G1 F800.0 Z-3.0
G1 F1000.0 Y111.65
G1 X56.65
G1 Y110.35
G1 X43.35
G1 F800.0 Y109.55
G1 F1000.0 X42.55
G1 Y112.45
G1 X57.45
G1 Y109.55
G1 X43.35
G1 F800.0 Y108.75
G1 F1000.0 X41.75
G1 Y113.25
G1 X58.25
G1 Y108.75
G1 X43.35
G1 F800.0 Y107.95
G1 F1000.0 X40.95
G1 Y114.05
G1 X59.05
G1 Y107.95
G1 X43.35
G1 F800.0 Y107.15
G1 F1000.0 X40.15
G1 Y114.85
G1 X59.85
G1 Y107.15
G1 X43.35
G1 F800.0 Y106.35
G1 F1000.0 X39.35
G1 Y115.65
G1 X60.65
G1 Y106.35
G1 X43.35
G1 F800.0 Y105.55
G1 F1000.0 X38.55
G1 Y116.45
G1 X61.45
G1 Y105.55
G1 X43.35
G1 F800.0 Y104.75
G1 F1000.0 X37.75
G1 Y117.25
G1 X62.25
G1 Y104.75
G1 X43.35
G1 F800.0 Y103.95
G1 F1000.0 X36.95
G1 Y118.05
G1 X63.05
G1 Y103.95
G1 X43.35
G1 F800.0 Y103.15
G1 F1000.0 X36.15
G1 Y118.85
G1 X63.85
G1 Y103.15
G1 X43.35
G1 F800.0 Y102.35
G1 F1000.0 X35.35
G1 Y119.65
G1 X64.65
G1 Y102.35
G1 X43.35
G1 F800.0 Y101.55
G1 F1000.0 X34.55
G1 Y120.45
G1 X65.45
G1 Y101.55
G1 X43.35
G1 F800.0 Y100.75
G1 F1000.0 X33.75
G1 Y121.25
G1 X66.25
G1 Y100.75
G1 X43.35
( Pockets )
S1000
G0 Z3.0
G0 X7.6 Y33.0
G1 F800.0 Z-2.5
G2 F1000.0 X6.7 Y32.4804 I-0.6 J0.0
G2 Y33.5196 I0.3 J0.5196
G2 X7.6 Y33.0 I0.3 J-0.5196
G1 F800.0 X8.4
G2 F1000.0 X6.3 Y31.7876 I-1.4 J0.0
G2 Y34.2124 I0.7 J1.2124
G2 X8.4 Y33.0 I0.7 J-1.2124
G1 F800.0 X9.2
G2 F1000.0 X5.9 Y31.0947 I-2.2 J0.0
G2 Y34.9053 I1.1 J1.9053
G2 X9.2 Y33.0 I1.1 J-1.9053
G1 F800.0 X10.0
G2 F1000.0 X5.5 Y30.4019 I-3.0 J0.0
G2 Y35.5981 I1.5 J2.5981
G2 X10.0 Y33.0 I1.5 J-2.5981
G0 Z3.0
G0 X7.6
G1 F800.0 Z-5.0
G2 F1000.0 X6.7 Y32.4804 I-0.6 J0.0
G2 Y33.5196 I0.3 J0.5196
G2 X7.6 Y33.0 I0.3 J-0.5196
G1 F800.0 X8.4
G2 F1000.0 X6.3 Y31.7876 I-1.4 J0.0
G2 Y34.2124 I0.7 J1.2124
G2 X8.4 Y33.0 I0.7 J-1.2124
G1 F800.0 X9.2
G2 F1000.0 X5.9 Y31.0947 I-2.2 J0.0
G2 Y34.9053 I1.1 J1.9053
G2 X9.2 Y33.0 I1.1 J-1.9053
G1 F800.0 X10.0
G2 F1000.0 X5.5 Y30.4019 I-3.0 J0.0
G2 Y35.5981 I1.5 J2.5981
G2 X10.0 Y33.0 I1.5 J-2.5981
G0 Z3.0
G0 X32.4
G1 F800.0 Z-2.5
G2 F1000.0 X32.7 Y33.5196 I0.6 J0.0
G2 X33.6 Y33.0 I0.3 J-0.5196
G2 X32.7 Y32.4804 I-0.6 J0.0
G2 X32.4 Y33.0 I0.3 J0.5196
G1 F800.0 X31.6
G2 F1000.0 X32.3 Y34.2124 I1.4 J0.0
G2 X34.4 Y33.0 I0.7 J-1.2124
G2 X32.3 Y31.7876 I-1.4 J0.0
G2 X31.6 Y33.0 I0.7 J1.2124
G1 F800.0 X30.8
G2 F1000.0 X31.9 Y34.9053 I2.2 J0.0
G2 X35.2 Y33.0 I1.1 J-1.9053
G2 X31.9 Y31.0947 I-2.2 J0.0
G2 X30.8 Y33.0 I1.1 J1.9053
G1 F800.0 X30.0
G2 F1000.0 X31.5 Y35.5981 I3.0 J0.0
G2 X36.0 Y33.0 I1.5 J-2.5981
G2 X31.5 Y30.4019 I-3.0 J0.0
G2 X30.0 Y33.0 I1.5 J2.5981
G0 Z3.0
G0 X32.4
G1 F800.0 Z-5.0
G2 F1000.0 X32.7 Y33.5196 I0.6 J0.0
G2 X33.6 Y33.0 I0.3 J-0.5196
G2 X32.7 Y32.4804 I-0.6 J0.0
G2 X32.4 Y33.0 I0.3 J0.5196
G1 F800.0 X31.6
G2 F1000.0 X32.3 Y34.2124 I1.4 J0.0
G2 X34.4 Y33.0 I0.7 J-1.2124
G2 X32.3 Y31.7876 I-1.4 J0.0
G2 X31.6 Y33.0 I0.7 J1.2124
G1 F800.0 X30.8
G2 F1000.0 X31.9 Y34.9053 I2.2 J0.0
G2 X35.2 Y33.0 I1.1 J-1.9053
G2 X31.9 Y31.0947 I-2.2 J0.0
G2 X30.8 Y33.0 I1.1 J1.9053
G1 F800.0 X30.0
G2 F1000.0 X31.5 Y35.5981 I3.0 J0.0
G2 X36.0 Y33.0 I1.5 J-2.5981
G2 X31.5 Y30.4019 I-3.0 J0.0
G2 X30.0 Y33.0 I1.5 J2.5981
G0 Z3.0
G0 X32.9312 Y7.596
G1 F800.0 Z-2.5
G2 F1000.0 X33.6 Y7.0 I0.0688 J-0.596
G2 X32.7 Y6.4804 I-0.6 J0.0
G2 Y7.5196 I0.3 J0.5196
G2 X32.9312 Y7.596 I0.3 J-0.5196
G1 F800.0 X32.8395 Y8.3908
G2 F1000.0 X34.4 Y7.0 I0.1605 J-1.3908
G2 X32.3 Y5.7876 I-1.4 J0.0
G2 Y8.2124 I0.7 J1.2124
G2 X32.8395 Y8.3908 I0.7 J-1.2124
G1 F800.0 X32.7478 Y9.1855
G2 F1000.0 X35.2 Y7.0 I0.2522 J-2.1855
G2 X31.9 Y5.0947 I-2.2 J0.0
G2 Y8.9053 I1.1 J1.9053
G2 X32.7478 Y9.1855 I1.1 J-1.9053
G1 F800.0 X32.6561 Y9.9802
G2 F1000.0 X36.0 Y7.0 I0.3439 J-2.9802
G2 X31.5 Y4.4019 I-3.0 J0.0
G2 Y9.5981 I1.5 J2.5981
G2 X32.6561 Y9.9802 I1.5 J-2.5981
G0 Z3.0
G0 X32.9312 Y7.596
G1 F800.0 Z-5.0
G2 F1000.0 X33.6 Y7.0 I0.0688 J-0.596
G2 X32.7 Y6.4804 I-0.6 J0.0
G2 Y7.5196 I0.3 J0.5196
G2 X32.9312 Y7.596 I0.3 J-0.5196
G1 F800.0 X32.8395 Y8.3908
G2 F1000.0 X34.4 Y7.0 I0.1605 J-1.3908
G2 X32.3 Y5.7876 I-1.4 J0.0
G2 Y8.2124 I0.7 J1.2124
G2 X32.8395 Y8.3908 I0.7 J-1.2124
G1 F800.0 X32.7478 Y9.1855
G2 F1000.0 X35.2 Y7.0 I0.2522 J-2.1855
G2 X31.9 Y5.0947 I-2.2 J0.0
G2 Y8.9053 I1.1 J1.9053
G2 X32.7478 Y9.1855 I1.1 J-1.9053
G1 F800.0 X32.6561 Y9.9802
G2 F1000.0 X36.0 Y7.0 I0.3439 J-2.9802
G2 X31.5 Y4.4019 I-3.0 J0.0
G2 Y9.5981 I1.5 J2.5981
G2 X32.6561 Y9.9802 I1.5 J-2.5981
G0 Z3.0
G0 X7.596 Y7.0692
G1 F800.0 Z-2.5
G2 F1000.0 X7.6 Y7.0 I-0.596 J-0.0692
G2 X6.7 Y6.4804 I-0.6 J0.0
G2 Y7.5196 I0.3 J0.5196
G2 X7.596 Y7.0692 I0.3 J-0.5196
G1 F800.0 X8.3906 Y7.1615
G2 F1000.0 X8.4 Y7.0 I-1.3906 J-0.1615
G2 X6.3 Y5.7876 I-1.4 J0.0
G2 Y8.2124 I0.7 J1.2124
G2 X8.3906 Y7.1615 I0.7 J-1.2124
G1 F800.0 X9.1853 Y7.2538
G2 F1000.0 X9.2 Y7.0 I-2.1853 J-0.2538
G2 X5.9 Y5.0947 I-2.2 J0.0
G2 Y8.9053 I1.1 J1.9053
G2 X9.1853 Y7.2538 I1.1 J-1.9053
G1 F800.0 X9.98 Y7.3462
G2 F1000.0 X10.0 Y7.0 I-2.98 J-0.3462
G2 X5.5 Y4.4019 I-3.0 J0.0
G2 Y9.5981 I1.5 J2.5981
G2 X9.98 Y7.3462 I1.5 J-2.5981
G0 Z3.0
G0 X7.596 Y7.0692
G1 F800.0 Z-5.0
G2 F1000.0 X7.6 Y7.0 I-0.596 J-0.0692
G2 X6.7 Y6.4804 I-0.6 J0.0
G2 Y7.5196 I0.3 J0.5196
G2 X7.596 Y7.0692 I0.3 J-0.5196
G1 F800.0 X8.3906 Y7.1615
G2 F1000.0 X8.4 Y7.0 I-1.3906 J-0.1615
G2 X6.3 Y5.7876 I-1.4 J0.0
G2 Y8.2124 I0.7 J1.2124
G2 X8.3906 Y7.1615 I0.7 J-1.2124
G1 F800.0 X9.1853 Y7.2538
G2 F1000.0 X9.2 Y7.0 I-2.1853 J-0.2538
G2 X5.9 Y5.0947 I-2.2 J0.0
G2 Y8.9053 I1.1 J1.9053
G2 X9.1853 Y7.2538 I1.1 J-1.9053
G1 F800.0 X9.98 Y7.3462
G2 F1000.0 X10.0 Y7.0 I-2.98 J-0.3462
G2 X5.5 Y4.4019 I-3.0 J0.0
G2 Y9.5981 I1.5 J2.5981
G2 X9.98 Y7.3462 I1.5 J-2.5981
G0 Z3.0
G0 X60.4 Y7.0041
G1 F800.0 Z-2.5
G2 F1000.0 X60.7 Y7.5196 I0.6 J-0.0041
G2 X61.6 Y7.0 I0.3 J-0.5196
G2 X60.7 Y6.4804 I-0.6 J0.0
G2 X60.4 Y7.0041 I0.3 J0.5196
G1 F800.0 X59.6 Y7.0095
G2 F1000.0 X60.3 Y8.2124 I1.4 J-0.0095
G2 X62.4 Y7.0 I0.7 J-1.2124
G2 X60.3 Y5.7876 I-1.4 J0.0
G2 X59.6 Y7.0095 I0.7 J1.2124
G1 F800.0 X58.8001 Y7.0149
G2 F1000.0 X59.9 Y8.9053 I2.1999 J-0.0149
G2 X63.2 Y7.0 I1.1 J-1.9053
G2 X59.9 Y5.0947 I-2.2 J0.0
G2 X58.8001 Y7.0149 I1.1 J1.9053
G1 F800.0 X58.0001 Y7.0204
G2 F1000.0 X59.5 Y9.5981 I2.9999 J-0.0204
G2 X64.0 Y7.0 I1.5 J-2.5981
G2 X59.5 Y4.4019 I-3.0 J0.0
G2 X58.0001 Y7.0204 I1.5 J2.5981
G0 Z3.0
G0 X60.4 Y7.0041
G1 F800.0 Z-5.0
G2 F1000.0 X60.7 Y7.5196 I0.6 J-0.0041
G2 X61.6 Y7.0 I0.3 J-0.5196
G2 X60.7 Y6.4804 I-0.6 J0.0
G2 X60.4 Y7.0041 I0.3 J0.5196
G1 F800.0 X59.6 Y7.0095
G2 F1000.0 X60.3 Y8.2124 I1.4 J-0.0095
G2 X62.4 Y7.0 I0.7 J-1.2124
G2 X60.3 Y5.7876 I-1.4 J0.0
G2 X59.6 Y7.0095 I0.7 J1.2124
G1 F800.0 X58.8001 Y7.0149
G2 F1000.0 X59.9 Y8.9053 I2.1999 J-0.0149
G2 X63.2 Y7.0 I1.1 J-1.9053
G2 X59.9 Y5.0947 I-2.2 J0.0
G2 X58.8001 Y7.0149 I1.1 J1.9053
G1 F800.0 X58.0001 Y7.0204
G2 F1000.0 X59.5 Y9.5981 I2.9999 J-0.0204
G2 X64.0 Y7.0 I1.5 J-2.5981
G2 X59.5 Y4.4019 I-3.0 J0.0
G2 X58.0001 Y7.0204 I1.5 J2.5981
G0 Z3.0
G0 X60.9422 Y37.4028
G1 F800.0 Z-2.5
G2 F1000.0 X60.7 Y37.4804 I0.0578 J0.5972
G2 Y38.5196 I0.3 J0.5196
G2 X61.6 Y38.0 I0.3 J-0.5196
G2 X60.9422 Y37.4028 I-0.6 J0.0
G1 F800.0 X60.8651 Y36.6065
G2 F1000.0 X60.3 Y36.7876 I0.1349 J1.3935
G2 Y39.2124 I0.7 J1.2124
G2 X62.4 Y38.0 I0.7 J-1.2124
G2 X60.8651 Y36.6065 I-1.4 J0.0
G1 F800.0 X60.788 Y35.8102
G2 F1000.0 X59.9 Y36.0947 I0.212 J2.1898
G2 Y39.9053 I1.1 J1.9053
G2 X63.2 Y38.0 I1.1 J-1.9053
G2 X60.788 Y35.8102 I-2.2 J0.0
G1 F800.0 X60.7108 Y35.014
G2 F1000.0 X59.5 Y35.4019 I0.2892 J2.986
G2 Y40.5981 I1.5 J2.5981
G2 X64.0 Y38.0 I1.5 J-2.5981
G2 X60.7108 Y35.014 I-3.0 J0.0
G0 Z3.0
G0 X60.9422 Y37.4028
G1 F800.0 Z-5.0
G2 F1000.0 X60.7 Y37.4804 I0.0578 J0.5972
G2 Y38.5196 I0.3 J0.5196
G2 X61.6 Y38.0 I0.3 J-0.5196
G2 X60.9422 Y37.4028 I-0.6 J0.0
G1 F800.0 X60.8651 Y36.6065
G2 F1000.0 X60.3 Y36.7876 I0.1349 J1.3935
G2 Y39.2124 I0.7 J1.2124
G2 X62.4 Y38.0 I0.7 J-1.2124
G2 X60.8651 Y36.6065 I-1.4 J0.0
G1 F800.0 X60.788 Y35.8102
G2 F1000.0 X59.9 Y36.0947 I0.212 J2.1898
G2 Y39.9053 I1.1 J1.9053
G2 X63.2 Y38.0 I1.1 J-1.9053
G2 X60.788 Y35.8102 I-2.2 J0.0
G1 F800.0 X60.7108 Y35.014
G2 F1000.0 X59.5 Y35.4019 I0.2892 J2.986
G2 Y40.5981 I1.5 J2.5981
G2 X64.0 Y38.0 I1.5 J-2.5981
G2 X60.7108 Y35.014 I-3.0 J0.0
G0 Z3.0
G0 X91.4027 Y37.943
G1 F800.0 Z-2.5
G2 F1000.0 X91.7 Y38.5196 I0.5973 J0.057
G2 X92.6 Y38.0 I0.3 J-0.5196
G2 X91.7 Y37.4804 I-0.6 J0.0
G2 X91.4027 Y37.943 I0.3 J0.5196
G1 F800.0 X90.6063 Y37.867
G2 F1000.0 X91.3 Y39.2124 I1.3937 J0.133
G2 X93.4 Y38.0 I0.7 J-1.2124
G2 X91.3 Y36.7876 I-1.4 J0.0
G2 X90.6063 Y37.867 I0.7 J1.2124
G1 F800.0 X89.81 Y37.791
G2 F1000.0 X90.9 Y39.9053 I2.19 J0.209
G2 X94.2 Y38.0 I1.1 J-1.9053
G2 X90.9 Y36.0947 I-2.2 J0.0
G2 X89.81 Y37.791 I1.1 J1.9053
G1 F800.0 X89.0136 Y37.715
G2 F1000.0 X90.5 Y40.5981 I2.9864 J0.285
G2 X95.0 Y38.0 I1.5 J-2.5981
G2 X90.5 Y35.4019 I-3.0 J0.0
G2 X89.0136 Y37.715 I1.5 J2.5981
G0 Z3.0
G0 X91.4027 Y37.943
G1 F800.0 Z-5.0
G2 F1000.0 X91.7 Y38.5196 I0.5973 J0.057
G2 X92.6 Y38.0 I0.3 J-0.5196
G2 X91.7 Y37.4804 I-0.6 J0.0
G2 X91.4027 Y37.943 I0.3 J0.5196
G1 F800.0 X90.6063 Y37.867
G2 F1000.0 X91.3 Y39.2124 I1.3937 J0.133
G2 X93.4 Y38.0 I0.7 J-1.2124
G2 X91.3 Y36.7876 I-1.4 J0.0
G2 X90.6063 Y37.867 I0.7 J1.2124
G1 F800.0 X89.81 Y37.791
G2 F1000.0 X90.9 Y39.9053 I2.19 J0.209
G2 X94.2 Y38.0 I1.1 J-1.9053
G2 X90.9 Y36.0947 I-2.2 J0.0
G2 X89.81 Y37.791 I1.1 J1.9053
G1 F800.0 X89.0136 Y37.715
G2 F1000.0 X90.5 Y40.5981 I2.9864 J0.285
G2 X95.0 Y38.0 I1.5 J-2.5981
G2 X90.5 Y35.4019 I-3.0 J0.0
G2 X89.0136 Y37.715 I1.5 J2.5981
G0 Z3.0
G0 X91.9419 Y7.5972
G1 F800.0 Z-2.5
G2 F1000.0 X92.6 Y7.0 I0.0581 J-0.5972
G2 X91.7 Y6.4804 I-0.6 J0.0
G2 Y7.5196 I0.3 J0.5196
G2 X91.9419 Y7.5972 I0.3 J-0.5196
G1 F800.0 X91.8645 Y8.3934
G2 F1000.0 X93.4 Y7.0 I0.1355 J-1.3934
G2 X91.3 Y5.7876 I-1.4 J0.0
G2 Y8.2124 I0.7 J1.2124
G2 X91.8645 Y8.3934 I0.7 J-1.2124
G1 F800.0 X91.7871 Y9.1897
G2 F1000.0 X94.2 Y7.0 I0.2129 J-2.1897
G2 X90.9 Y5.0947 I-2.2 J0.0
G2 Y8.9053 I1.1 J1.9053
G2 X91.7871 Y9.1897 I1.1 J-1.9053
G1 F800.0 X91.7097 Y9.9859
G2 F1000.0 X95.0 Y7.0 I0.2903 J-2.9859
G2 X90.5 Y4.4019 I-3.0 J0.0
G2 Y9.5981 I1.5 J2.5981
G2 X91.7097 Y9.9859 I1.5 J-2.5981
G0 Z3.0
G0 X91.9419 Y7.5972
G1 F800.0 Z-5.0
G2 F1000.0 X92.6 Y7.0 I0.0581 J-0.5972
G2 X91.7 Y6.4804 I-0.6 J0.0
G2 Y7.5196 I0.3 J0.5196
G2 X91.9419 Y7.5972 I0.3 J-0.5196
G1 F800.0 X91.8645 Y8.3934
G2 F1000.0 X93.4 Y7.0 I0.1355 J-1.3934
G2 X91.3 Y5.7876 I-1.4 J0.0
G2 Y8.2124 I0.7 J1.2124
G2 X91.8645 Y8.3934 I0.7 J-1.2124
G1 F800.0 X91.7871 Y9.1897
G2 F1000.0 X94.2 Y7.0 I0.2129 J-2.1897
G2 X90.9 Y5.0947 I-2.2 J0.0
G2 Y8.9053 I1.1 J1.9053
G2 X91.7871 Y9.1897 I1.1 J-1.9053
G1 F800.0 X91.7097 Y9.9859
G2 F1000.0 X95.0 Y7.0 I0.2903 J-2.9859
G2 X90.5 Y4.4019 I-3.0 J0.0
G2 Y9.5981 I1.5 J2.5981
G2 X91.7097 Y9.9859 I1.5 J-2.5981
( Profil )
S1000
G0 Z3.0
G0 X5.0 Y-1.0
G1 F800.0 Z-2.5
G1 F1000.0 X95.0
G3 X101.0 Y5.0 I0.0 J6.0
G1 Y115.0
G3 X95.0 Y121.0 I-6.0 J0.0
G1 X5.0
G3 X-1.0 Y115.0 I0.0 J-6.0
G1 Y5.0
G3 X5.0 Y-1.0 I6.0 J0.0
G1 F800.0 Z-5.0
G1 F1000.0 X95.0
G3 X101.0 Y5.0 I0.0 J6.0
G1 Y115.0
G3 X95.0 Y121.0 I-6.0 J0.0
G1 X5.0
G3 X-1.0 Y115.0 I0.0 J-6.0
G1 Y5.0
G3 X5.0 Y-1.0 I6.0 J0.0
G1 F800.0 Z-7.5
G1 F1000.0 X17.9307
G1 X20.4307 Z-7.25
G1 X22.9307 Z-7.5
G1 X76.5
G1 X79.0 Z-7.25
G1 X81.5 Z-7.5
G1 X95.0
G3 X101.0 Y5.0 I0.0 J6.0
G1 Y60.5
G1 Y63.0 Z-7.25
G1 Y65.5 Z-7.5
G1 Y115.0
G3 X95.0 Y121.0 I-6.0 J0.0
G1 X80.9671
G1 X78.4671 Z-7.25
G1 X75.9671 Z-7.5
G1 X19.2443
G1 X16.7443 Z-7.25
G1 X14.2443 Z-7.5
G1 X5.0
G3 X-1.0 Y115.0 I0.0 J-6.0
G1 Y67.5
G1 Y65.0 Z-7.25
G1 Y62.5 Z-7.5
G1 Y5.0
G3 X5.0 Y-1.0 I6.0 J0.0
G1 F800.0 Z-10.0
G1 F1000.0 X17.9307
G1 X20.4307 Z-7.25
G1 X22.9307 Z-10.0
G1 X76.5
G1 X79.0 Z-7.25
G1 X81.5 Z-10.0
G1 X95.0
G3 X101.0 Y5.0 I0.0 J6.0
G1 Y60.5
G1 Y63.0 Z-7.25
G1 Y65.5 Z-10.0
G1 Y115.0
G3 X95.0 Y121.0 I-6.0 J0.0
G1 X80.9671
G1 X78.4671 Z-7.25
G1 X75.9671 Z-10.0
G1 X19.2443
G1 X16.7443 Z-7.25
G1 X14.2443 Z-10.0
G1 X5.0
G3 X-1.0 Y115.0 I0.0 J-6.0
G1 Y67.5
G1 Y65.0 Z-7.25
G1 Y62.5 Z-10.0
G1 Y5.0
G3 X5.0 Y-1.0 I6.0 J0.0
G1 F800.0 Z-10.25
G1 F1000.0 X17.9307
G1 X20.4307 Z-7.25
G1 X22.9307 Z-10.25
G1 X76.5
G1 X79.0 Z-7.25
G1 X81.5 Z-10.25
G1 X95.0
G3 X101.0 Y5.0 I0.0 J6.0
G1 Y60.5
G1 Y63.0 Z-7.25
G1 Y65.5 Z-10.25
G1 Y115.0
G3 X95.0 Y121.0 I-6.0 J0.0
G1 X80.9671
G1 X78.4671 Z-7.25
G1 X75.9671 Z-10.25
G1 X19.2443
G1 X16.7443 Z-7.25
G1 X14.2443 Z-10.25
G1 X5.0
G3 X-1.0 Y115.0 I0.0 J-6.0
G1 Y67.5
G1 Y65.0 Z-7.25
G1 Y62.5 Z-10.25
G1 Y5.0
G3 X5.0 Y-1.0 I6.0 J0.0
G0 Z3.0
M5
M30
